; G-Code generated by Simplify3D(R) Version 3.0.2
; Jun 10, 2022 at 11:37:44 PM
; Settings Summary
;   processName,Process1
;   applyToModels,Mount
;   profileName,Ender 3 (modified)
;   profileVersion,2022-03-25 00:06:10
;   baseProfile,Creality CR-10 Mini
;   printMaterial,PLA
;   printQuality,Medium
;   printExtruders,
;   extruderName,Primary Extruder
;   extruderToolheadNumber,0
;   extruderDiameter,0.4
;   extruderAutoWidth,0
;   extruderWidth,0.36
;   extrusionMultiplier,1
;   extruderUseRetract,1
;   extruderRetractionDistance,5.5
;   extruderExtraRestartDistance,0
;   extruderRetractionZLift,1
;   extruderRetractionSpeed,1800
;   extruderUseCoasting,1
;   extruderCoastingDistance,0.2
;   extruderUseWipe,1
;   extruderWipeDistance,5
;   primaryExtruder,0
;   layerHeight,0.25
;   topSolidLayers,4
;   bottomSolidLayers,4
;   perimeterOutlines,4
;   printPerimetersInsideOut,1
;   startPointOption,2
;   startPointOriginX,0
;   startPointOriginY,110
;   startPointOriginZ,300
;   sequentialIslands,0
;   spiralVaseMode,0
;   firstLayerHeightPercentage,120
;   firstLayerWidthPercentage,105
;   firstLayerUnderspeed,0.4
;   useRaft,0
;   raftExtruder,0
;   raftLayers,3
;   raftOffset,3
;   raftSeparationDistance,0.14
;   raftInfill,85
;   disableRaftBaseLayers,0
;   useSkirt,1
;   skirtExtruder,0
;   skirtLayers,2
;   skirtOutlines,2
;   skirtOffset,2
;   usePrimePillar,0
;   primePillarExtruder,999
;   primePillarWidth,12
;   primePillarLocation,7
;   primePillarSpeedMultiplier,1
;   useOozeShield,0
;   oozeShieldExtruder,999
;   oozeShieldOffset,2
;   oozeShieldOutlines,1
;   oozeShieldSidewallShape,1
;   oozeShieldSidewallAngle,30
;   oozeShieldSpeedMultiplier,1
;   infillExtruder,0
;   internalInfillPattern,Rectilinear
;   externalInfillPattern,Rectilinear
;   infillPercentage,20
;   outlineOverlapPercentage,15
;   infillExtrusionWidthPercentage,100
;   minInfillLength,5
;   infillLayerInterval,1
;   infillAngles,45,-45
;   overlapInfillAngles,0
;   generateSupport,0
;   supportExtruder,0
;   supportInfillPercentage,15
;   supportExtraInflation,1
;   denseSupportLayers,2
;   denseSupportInfillPercentage,70
;   supportLayerInterval,1
;   supportHorizontalPartOffset,0.3
;   supportUpperSeparationLayers,1
;   supportLowerSeparationLayers,1
;   supportType,0
;   supportGridSpacing,4
;   maxOverhangAngle,50
;   supportAngles,45
;   temperatureName,Primary Extruder,Heated Bed
;   temperatureNumber,0,0
;   temperatureSetpointCount,2,1
;   temperatureSetpointLayers,1,1,1
;   temperatureSetpointTemperatures,215,210,65
;   temperatureStabilizeAtStartup,1,1
;   temperatureHeatedBed,0,1
;   temperatureRelayBetweenLayers,0,0
;   temperatureRelayBetweenLoops,0,0
;   fanLayers,1,2
;   fanSpeeds,0,100
;   blipFanToFullPower,0
;   adjustSpeedForCooling,1
;   minSpeedLayerTime,15
;   minCoolingSpeedSlowdown,20
;   increaseFanForCooling,0
;   minFanLayerTime,45
;   maxCoolingFanSpeed,100
;   increaseFanForBridging,0
;   bridgingFanSpeed,100
;   use5D,1
;   relativeEdistances,0
;   allowEaxisZeroing,1
;   independentExtruderAxes,0
;   includeM10123,0
;   stickySupport,1
;   applyToolheadOffsets,0
;   gcodeXoffset,0
;   gcodeYoffset,0
;   gcodeZoffset,0
;   overrideMachineDefinition,1
;   machineTypeOverride,0
;   strokeXoverride,220
;   strokeYoverride,220
;   strokeZoverride,250
;   originOffsetXoverride,0
;   originOffsetYoverride,0
;   originOffsetZoverride,0
;   homeXdirOverride,-1
;   homeYdirOverride,-1
;   homeZdirOverride,-1
;   flipXoverride,1
;   flipYoverride,-1
;   flipZoverride,1
;   toolheadOffsets,0,0|0,0|0,0|0,0|0,0|0,0
;   overrideFirmwareConfiguration,1
;   firmwareTypeOverride,RepRap (Marlin/Repetier/Sprinter)
;   GPXconfigOverride,r2
;   baudRateOverride,115200
;   overridePrinterModels,1
;   printerModelsOverride
;   startingGcode,G28 ; home all axes,G1 Z5 F3000 ; lift,G1 X5 Y10 F1500 ; move to prime,G1 Z0.2 F3000 ; get ready to prime,G92 E0 ; reset extrusion distance,G1 Y80 E10 F600 ; prime nozzle,G1 Y100 F5000 ; quick wipe
;   layerChangeGcode,
;   retractionGcode,
;   toolChangeGcode,
;   endingGcode,G28 X0 ; home x axis,M106 S0 ; turn off cooling fan,M104 S0 ; turn off extruder,M140 S0 ; turn off bed,M84 ; disable motors
;   createX3G,0
;   celebration,0
;   celebrationSong,Funky Town
;   createMB5G,0
;   postProcessing,
;   defaultSpeed,2700
;   outlineUnderspeed,0.5
;   solidInfillUnderspeed,0.8
;   supportUnderspeed,0.8
;   rapidXYspeed,4800
;   rapidZspeed,1002
;   minBridgingArea,50
;   bridgingExtraInflation,0
;   bridgingExtrusionMultiplier,1
;   bridgingSpeedMultiplier,1
;   filamentDiameter,1.75
;   filamentPricePerKg,20
;   filamentDensity,1.25
;   useMinPrintHeight,0
;   minPrintHeight,0
;   useMaxPrintHeight,0
;   maxPrintHeight,0
;   useDiaphragm,0
;   diaphragmLayerInterval,20
;   robustSlicing,1
;   mergeAllIntoSolid,0
;   onlyRetractWhenCrossingOutline,1
;   retractBetweenLayers,1
;   useRetractionMinTravel,0
;   retractionMinTravel,3
;   retractWhileWiping,0
;   onlyWipeOutlines,1
;   avoidCrossingOutline,0
;   maxMovementDetourFactor,3
;   toolChangeRetractionDistance,12
;   toolChangeExtraRestartDistance,-0.5
;   toolChangeRetractionSpeed,600
;   allowThinWallGapFill,1
;   thinWallAllowedOverlapPercentage,10
;   horizontalSizeCompensation,0
G90
M82
M106 S0
M140 S65
M190 S65
M104 S215 T0
M109 S215 T0
G28 ; home all axes
G1 Z5 F3000 ; lift
G1 X5 Y10 F1500 ; move to prime
G1 Z0.2 F3000 ; get ready to prime
G92 E0 ; reset extrusion distance
G1 Y80 E10 F600 ; prime nozzle
G1 Y100 F5000 ; quick wipe
G92 E0
G1 E-5.5000 F1800
G1 Z1.300 F1002
; layer 1, Z = 0.3
T0
; tool H0.300 W0.378
; skirt
G1 X71.664 Y69.654 F4800
G1 Z0.300 F1002
G1 E0.0000 F540
G92 E0
G1 X73.952 Y67.427 E0.1505 F1080
G1 X73.958 Y67.422 E0.1509
G1 X74.009 Y67.375 E0.1542
G1 X74.015 Y67.369 E0.1546
G1 X76.435 Y65.288 E0.3050
G1 X76.442 Y65.282 E0.3054
G1 X76.496 Y65.238 E0.3087
G1 X76.502 Y65.233 E0.3091
G1 X79.046 Y63.304 E0.4596
G1 X79.052 Y63.299 E0.4600
G1 X79.109 Y63.259 E0.4633
G1 X79.116 Y63.254 E0.4637
G1 X81.773 Y61.485 E0.6142
G1 X81.780 Y61.480 E0.6146
G1 X81.839 Y61.444 E0.6178
G1 X81.846 Y61.439 E0.6182
G1 X84.606 Y59.837 E0.7687
G1 X84.614 Y59.833 E0.7691
G1 X84.675 Y59.799 E0.7724
G1 X84.682 Y59.796 E0.7728
G1 X87.536 Y58.366 E0.9233
G1 X87.544 Y58.362 E0.9237
G1 X87.607 Y58.333 E0.9270
G1 X87.614 Y58.329 E0.9274
G1 X90.551 Y57.077 E1.0778
G1 X90.558 Y57.074 E1.0782
G1 X90.623 Y57.049 E1.0815
G1 X90.631 Y57.046 E1.0819
G1 X93.638 Y55.977 E1.2324
G1 X93.646 Y55.974 E1.2328
G1 X93.713 Y55.953 E1.2361
G1 X93.721 Y55.950 E1.2365
G1 X96.788 Y55.068 E1.3870
G1 X96.796 Y55.066 E1.3874
G1 X96.864 Y55.048 E1.3906
G1 X96.872 Y55.046 E1.3910
G1 X99.988 Y54.354 E1.5415
G1 X99.996 Y54.352 E1.5419
G1 X100.064 Y54.339 E1.5452
G1 X100.073 Y54.338 E1.5456
G1 X103.225 Y53.838 E1.6961
G1 X103.233 Y53.837 E1.6965
G1 X103.303 Y53.828 E1.6998
G1 X103.311 Y53.827 E1.7001
G1 X106.488 Y53.522 E1.8506
G1 X106.496 Y53.522 E1.8510
G1 X106.566 Y53.517 E1.8543
G1 X106.574 Y53.517 E1.8547
G1 X109.764 Y53.407 E2.0052
G1 X109.773 Y53.407 E2.0056
G1 X109.843 Y53.407 E2.0089
G1 X109.851 Y53.407 E2.0093
G1 X113.042 Y53.494 E2.1598
G1 X113.050 Y53.494 E2.1601
G1 X113.119 Y53.498 E2.1634
G1 X113.128 Y53.499 E2.1638
G1 X116.307 Y53.782 E2.3143
G1 X116.315 Y53.782 E2.3147
G1 X116.385 Y53.791 E2.3180
G1 X116.393 Y53.792 E2.3184
G1 X119.549 Y54.269 E2.4689
G1 X119.557 Y54.271 E2.4693
G1 X119.626 Y54.283 E2.4726
G1 X119.634 Y54.285 E2.4729
G1 X122.755 Y54.955 E2.6234
G1 X122.763 Y54.957 E2.6238
G1 X122.830 Y54.974 E2.6271
G1 X122.838 Y54.976 E2.6275
G1 X125.912 Y55.837 E2.7780
G1 X125.920 Y55.839 E2.7784
G1 X125.987 Y55.860 E2.7817
G1 X125.994 Y55.863 E2.7821
G1 X129.009 Y56.911 E2.9325
G1 X129.017 Y56.914 E2.9329
G1 X129.082 Y56.939 E2.9362
G1 X129.090 Y56.942 E2.9366
G1 X132.035 Y58.173 E3.0871
G1 X132.042 Y58.176 E3.0875
G1 X132.106 Y58.205 E3.0908
G1 X132.114 Y58.209 E3.0912
G1 X134.977 Y59.619 E3.2417
G1 X134.985 Y59.622 E3.2421
G1 X135.046 Y59.655 E3.2453
G1 X135.053 Y59.659 E3.2457
G1 X137.825 Y61.242 E3.3962
G1 X137.832 Y61.246 E3.3966
G1 X137.892 Y61.283 E3.3999
G1 X137.899 Y61.287 E3.4003
G1 X140.568 Y63.038 E3.5508
G1 X140.575 Y63.042 E3.5512
G1 X140.632 Y63.083 E3.5545
G1 X140.639 Y63.087 E3.5549
G1 X143.195 Y64.998 E3.7053
G1 X143.202 Y65.004 E3.7057
G1 X143.256 Y65.047 E3.7090
G1 X143.263 Y65.052 E3.7094
G1 X145.697 Y67.117 E3.8599
G1 X145.703 Y67.122 E3.8603
G1 X145.755 Y67.169 E3.8636
G1 X145.761 Y67.175 E3.8640
G1 X148.064 Y69.385 E4.0145
G1 X148.070 Y69.391 E4.0149
G1 X148.119 Y69.440 E4.0181
G1 X148.125 Y69.446 E4.0185
G1 X150.287 Y71.794 E4.1690
G1 X150.293 Y71.800 E4.1694
G1 X150.339 Y71.853 E4.1727
G1 X150.344 Y71.859 E4.1731
G1 X152.359 Y74.335 E4.3236
G1 X152.364 Y74.342 E4.3240
G1 X152.406 Y74.397 E4.3273
G1 X152.411 Y74.404 E4.3277
G1 X154.270 Y76.999 E4.4781
G1 X154.274 Y77.006 E4.4785
G1 X154.313 Y77.064 E4.4818
G1 X154.318 Y77.070 E4.4822
G1 X156.013 Y79.775 E4.6327
G1 X156.018 Y79.782 E4.6331
G1 X156.053 Y79.842 E4.6364
G1 X156.057 Y79.849 E4.6368
G1 X157.583 Y82.653 E4.7873
G1 X157.587 Y82.660 E4.7876
G1 X157.619 Y82.722 E4.7909
G1 X157.622 Y82.730 E4.7913
G1 X158.974 Y85.621 E4.9418
G1 X158.977 Y85.629 E4.9422
G1 X159.005 Y85.693 E4.9455
G1 X159.008 Y85.701 E4.9459
G1 X160.179 Y88.670 E5.0964
G1 X160.182 Y88.678 E5.0968
G1 X160.205 Y88.744 E5.1001
G1 X160.208 Y88.751 E5.1004
G1 X161.195 Y91.787 E5.2509
G1 X161.197 Y91.795 E5.2513
G1 X161.216 Y91.862 E5.2546
G1 X161.219 Y91.870 E5.2550
G1 X162.017 Y94.960 E5.4055
G1 X162.019 Y94.968 E5.4059
G1 X162.034 Y95.037 E5.4092
G1 X162.036 Y95.045 E5.4096
G1 X162.643 Y98.178 E5.5600
G1 X162.644 Y98.187 E5.5604
G1 X162.655 Y98.255 E5.5637
G1 X162.656 Y98.264 E5.5641
G1 X163.070 Y101.429 E5.7146
G1 X163.070 Y101.437 E5.7150
G1 X163.077 Y101.506 E5.7183
G1 X163.078 Y101.515 E5.7187
G1 X163.296 Y104.699 E5.8692
G1 X163.296 Y104.707 E5.8696
G1 X163.299 Y104.777 E5.8728
G1 X163.299 Y104.785 E5.8732
G1 X163.321 Y107.977 E6.0237
G1 X163.321 Y107.986 E6.0241
G1 X163.319 Y108.055 E6.0274
G1 X163.319 Y108.064 E6.0278
G1 X163.145 Y111.251 E6.1783
G1 X163.144 Y111.259 E6.1787
G1 X163.138 Y111.329 E6.1820
G1 X163.137 Y111.337 E6.1824
G1 X162.768 Y114.507 E6.3328
G1 X162.767 Y114.516 E6.3332
G1 X162.756 Y114.585 E6.3365
G1 X162.755 Y114.593 E6.3369
G1 X162.191 Y117.734 E6.4874
G1 X162.190 Y117.743 E6.4878
G1 X162.175 Y117.811 E6.4911
G1 X162.173 Y117.819 E6.4915
G1 X161.418 Y120.920 E6.6420
G1 X161.416 Y120.928 E6.6424
G1 X161.397 Y120.995 E6.6456
G1 X161.395 Y121.003 E6.6460
G1 X160.450 Y124.052 E6.7965
G1 X160.447 Y124.060 E6.7969
G1 X160.425 Y124.126 E6.8002
G1 X160.422 Y124.134 E6.8006
G1 X159.298 Y127.103 E6.9503
G1 X159.296 Y127.107 E6.9505
G1 X159.283 Y127.139 E6.9521
G1 X159.282 Y127.143 E6.9523
G1 X145.765 Y159.776 E8.6176
G1 X145.712 Y159.858 E8.6222
G1 X145.149 Y160.459 E8.6610
G1 X145.071 Y160.517 E8.6656
G1 X132.878 Y166.547 E9.3069
G1 X132.766 Y166.575 E9.3123
G1 X131.786 Y166.608 E9.3586
G1 X131.673 Y166.587 E9.3640
G1 X117.651 Y160.779 E10.0795
G1 X116.503 Y160.378 E10.1369
G1 X115.387 Y160.124 E10.1908
G1 X114.250 Y159.998 E10.2448
G1 X112.994 Y160.000 E10.3040
G1 X109.871 Y160.086 E10.4513
G1 X109.863 Y160.087 E10.4517
G1 X109.793 Y160.086 E10.4550
G1 X109.785 Y160.086 E10.4554
G1 X106.595 Y159.978 E10.6058
G1 X106.586 Y159.978 E10.6062
G1 X106.517 Y159.973 E10.6095
G1 X106.508 Y159.972 E10.6099
G1 X103.331 Y159.669 E10.7604
G1 X103.323 Y159.668 E10.7608
G1 X103.253 Y159.659 E10.7641
G1 X103.245 Y159.658 E10.7645
G1 X100.093 Y159.159 E10.9150
G1 X100.084 Y159.158 E10.9154
G1 X100.016 Y159.145 E10.9186
G1 X100.008 Y159.143 E10.9190
G1 X96.891 Y158.452 E11.0695
G1 X96.883 Y158.450 E11.0699
G1 X96.816 Y158.433 E11.0732
G1 X96.808 Y158.431 E11.0736
G1 X93.740 Y157.549 E11.2241
G1 X93.732 Y157.547 E11.2245
G1 X93.666 Y157.526 E11.2278
G1 X93.658 Y157.523 E11.2282
G1 X90.650 Y156.455 E11.3786
G1 X90.642 Y156.452 E11.3790
G1 X90.577 Y156.426 E11.3823
G1 X90.569 Y156.423 E11.3827
G1 X87.633 Y155.172 E11.5332
G1 X87.625 Y155.169 E11.5336
G1 X87.562 Y155.140 E11.5369
G1 X87.554 Y155.136 E11.5373
G1 X84.700 Y153.707 E11.6878
G1 X84.693 Y153.703 E11.6882
G1 X84.631 Y153.670 E11.6914
G1 X84.624 Y153.666 E11.6918
G1 X81.863 Y152.065 E11.8423
G1 X81.856 Y152.060 E11.8427
G1 X81.797 Y152.024 E11.8460
G1 X81.790 Y152.019 E11.8464
G1 X79.132 Y150.251 E11.9969
G1 X79.126 Y150.246 E11.9973
G1 X79.069 Y150.206 E12.0006
G1 X79.062 Y150.201 E12.0009
G1 X76.518 Y148.273 E12.1514
G1 X76.512 Y148.268 E12.1518
G1 X76.457 Y148.224 E12.1551
G1 X76.451 Y148.219 E12.1555
G1 X74.030 Y146.138 E12.3060
G1 X74.024 Y146.132 E12.3064
G1 X73.973 Y146.085 E12.3097
G1 X73.967 Y146.080 E12.3101
G1 X71.679 Y143.854 E12.4606
G1 X71.673 Y143.848 E12.4609
G1 X71.624 Y143.798 E12.4642
G1 X71.618 Y143.792 E12.4646
G1 X69.471 Y141.430 E12.6151
G1 X69.466 Y141.424 E12.6155
G1 X69.421 Y141.371 E12.6188
G1 X69.415 Y141.365 E12.6192
G1 X67.417 Y138.875 E12.7697
G1 X67.412 Y138.869 E12.7701
G1 X67.370 Y138.813 E12.7734
G1 X67.365 Y138.806 E12.7737
G1 X65.524 Y136.199 E12.9242
G1 X65.519 Y136.192 E12.9246
G1 X65.481 Y136.134 E12.9279
G1 X65.476 Y136.127 E12.9283
G1 X63.799 Y133.411 E13.0788
G1 X63.794 Y133.404 E13.0792
G1 X63.760 Y133.344 E13.0825
G1 X63.756 Y133.337 E13.0829
G1 X62.248 Y130.523 E13.2334
G1 X62.244 Y130.516 E13.2337
G1 X62.213 Y130.453 E13.2370
G1 X62.210 Y130.446 E13.2374
G1 X60.878 Y127.545 E13.3879
G1 X60.874 Y127.538 E13.3883
G1 X60.847 Y127.473 E13.3916
G1 X60.844 Y127.466 E13.3920
G1 X59.693 Y124.489 E13.5425
G1 X59.690 Y124.481 E13.5429
G1 X59.667 Y124.415 E13.5461
G1 X59.664 Y124.407 E13.5465
G1 X58.698 Y121.365 E13.6970
G1 X58.695 Y121.357 E13.6974
G1 X58.676 Y121.290 E13.7007
G1 X58.674 Y121.282 E13.7011
G1 X57.897 Y118.186 E13.8516
G1 X57.895 Y118.178 E13.8520
G1 X57.880 Y118.110 E13.8553
G1 X57.878 Y118.102 E13.8557
G1 X57.292 Y114.964 E14.0061
G1 X57.291 Y114.956 E14.0065
G1 X57.280 Y114.887 E14.0098
G1 X57.279 Y114.879 E14.0102
G1 X56.887 Y111.711 E14.1607
G1 X56.886 Y111.703 E14.1611
G1 X56.880 Y111.633 E14.1644
G1 X56.879 Y111.625 E14.1648
G1 X56.682 Y108.439 E14.3153
G1 X56.682 Y108.431 E14.3157
G1 X56.680 Y108.361 E14.3189
G1 X56.680 Y108.353 E14.3193
G1 X56.679 Y105.161 E14.4698
G1 X56.679 Y105.152 E14.4702
G1 X56.681 Y105.083 E14.4735
G1 X56.682 Y105.074 E14.4739
G1 X56.877 Y101.889 E14.6244
G1 X56.878 Y101.880 E14.6248
G1 X56.884 Y101.811 E14.6281
G1 X56.885 Y101.803 E14.6285
G1 X57.276 Y98.635 E14.7789
G1 X57.277 Y98.626 E14.7793
G1 X57.288 Y98.557 E14.7826
G1 X57.289 Y98.549 E14.7830
G1 X57.874 Y95.411 E14.9335
G1 X57.876 Y95.403 E14.9339
G1 X57.890 Y95.335 E14.9372
G1 X57.892 Y95.327 E14.9376
G1 X58.669 Y92.231 E15.0881
G1 X58.671 Y92.223 E15.0884
G1 X58.690 Y92.156 E15.0917
G1 X58.692 Y92.148 E15.0921
G1 X59.657 Y89.105 E15.2426
G1 X59.660 Y89.097 E15.2430
G1 X59.683 Y89.032 E15.2463
G1 X59.686 Y89.024 E15.2467
G1 X60.836 Y86.046 E15.3972
G1 X60.839 Y86.039 E15.3976
G1 X60.866 Y85.974 E15.4009
G1 X60.870 Y85.967 E15.4012
G1 X62.201 Y83.066 E15.5517
G1 X62.204 Y83.058 E15.5521
G1 X62.235 Y82.996 E15.5554
G1 X62.239 Y82.988 E15.5558
G1 X63.746 Y80.174 E15.7063
G1 X63.750 Y80.167 E15.7067
G1 X63.784 Y80.106 E15.7100
G1 X63.789 Y80.099 E15.7104
G1 X65.465 Y77.383 E15.8609
G1 X65.470 Y77.376 E15.8612
G1 X65.508 Y77.318 E15.8645
G1 X65.513 Y77.311 E15.8649
G1 X67.353 Y74.703 E16.0154
G1 X67.358 Y74.697 E16.0158
G1 X67.400 Y74.641 E16.0191
G1 X67.405 Y74.634 E16.0195
G1 X69.402 Y72.144 E16.1700
G1 X69.407 Y72.138 E16.1704
