; G-Code generated by Simplify3D(R) Version 3.0.2
; Jun 15, 2022 at 9:37:47 PM
; Settings Summary
;   processName,Process1
;   applyToModels,Mount_minimal
;   profileName,Ender 3 (modified)
;   profileVersion,2022-03-25 00:06:10
;   baseProfile,Creality CR-10 Mini
;   printMaterial,PLA
;   printQuality,Medium
;   printExtruders,
;   extruderName,Primary Extruder
;   extruderToolheadNumber,0
;   extruderDiameter,0.4
;   extruderAutoWidth,0
;   extruderWidth,0.36
;   extrusionMultiplier,1
;   extruderUseRetract,1
;   extruderRetractionDistance,5.5
;   extruderExtraRestartDistance,0
;   extruderRetractionZLift,1
;   extruderRetractionSpeed,1800
;   extruderUseCoasting,1
;   extruderCoastingDistance,0.2
;   extruderUseWipe,1
;   extruderWipeDistance,5
;   primaryExtruder,0
;   layerHeight,0.25
;   topSolidLayers,3
;   bottomSolidLayers,3
;   perimeterOutlines,3
;   printPerimetersInsideOut,1
;   startPointOption,2
;   startPointOriginX,0
;   startPointOriginY,110
;   startPointOriginZ,300
;   sequentialIslands,0
;   spiralVaseMode,0
;   firstLayerHeightPercentage,120
;   firstLayerWidthPercentage,105
;   firstLayerUnderspeed,0.4
;   useRaft,0
;   raftExtruder,0
;   raftLayers,3
;   raftOffset,3
;   raftSeparationDistance,0.14
;   raftInfill,85
;   disableRaftBaseLayers,0
;   useSkirt,1
;   skirtExtruder,0
;   skirtLayers,2
;   skirtOutlines,2
;   skirtOffset,2
;   usePrimePillar,0
;   primePillarExtruder,999
;   primePillarWidth,12
;   primePillarLocation,7
;   primePillarSpeedMultiplier,1
;   useOozeShield,0
;   oozeShieldExtruder,999
;   oozeShieldOffset,2
;   oozeShieldOutlines,1
;   oozeShieldSidewallShape,1
;   oozeShieldSidewallAngle,30
;   oozeShieldSpeedMultiplier,1
;   infillExtruder,0
;   internalInfillPattern,Rectilinear
;   externalInfillPattern,Rectilinear
;   infillPercentage,15
;   outlineOverlapPercentage,15
;   infillExtrusionWidthPercentage,100
;   minInfillLength,5
;   infillLayerInterval,1
;   infillAngles,45,-45
;   overlapInfillAngles,0
;   generateSupport,0
;   supportExtruder,0
;   supportInfillPercentage,15
;   supportExtraInflation,1
;   denseSupportLayers,2
;   denseSupportInfillPercentage,70
;   supportLayerInterval,1
;   supportHorizontalPartOffset,0.3
;   supportUpperSeparationLayers,1
;   supportLowerSeparationLayers,1
;   supportType,0
;   supportGridSpacing,4
;   maxOverhangAngle,50
;   supportAngles,45
;   temperatureName,Primary Extruder,Heated Bed
;   temperatureNumber,0,0
;   temperatureSetpointCount,2,1
;   temperatureSetpointLayers,1,1,1
;   temperatureSetpointTemperatures,215,210,65
;   temperatureStabilizeAtStartup,1,1
;   temperatureHeatedBed,0,1
;   temperatureRelayBetweenLayers,0,0
;   temperatureRelayBetweenLoops,0,0
;   fanLayers,1,2
;   fanSpeeds,0,100
;   blipFanToFullPower,0
;   adjustSpeedForCooling,1
;   minSpeedLayerTime,15
;   minCoolingSpeedSlowdown,20
;   increaseFanForCooling,0
;   minFanLayerTime,45
;   maxCoolingFanSpeed,100
;   increaseFanForBridging,0
;   bridgingFanSpeed,100
;   use5D,1
;   relativeEdistances,0
;   allowEaxisZeroing,1
;   independentExtruderAxes,0
;   includeM10123,0
;   stickySupport,1
;   applyToolheadOffsets,0
;   gcodeXoffset,0
;   gcodeYoffset,0
;   gcodeZoffset,0
;   overrideMachineDefinition,1
;   machineTypeOverride,0
;   strokeXoverride,220
;   strokeYoverride,220
;   strokeZoverride,250
;   originOffsetXoverride,0
;   originOffsetYoverride,0
;   originOffsetZoverride,0
;   homeXdirOverride,-1
;   homeYdirOverride,-1
;   homeZdirOverride,-1
;   flipXoverride,1
;   flipYoverride,-1
;   flipZoverride,1
;   toolheadOffsets,0,0|0,0|0,0|0,0|0,0|0,0
;   overrideFirmwareConfiguration,1
;   firmwareTypeOverride,RepRap (Marlin/Repetier/Sprinter)
;   GPXconfigOverride,r2
;   baudRateOverride,115200
;   overridePrinterModels,1
;   printerModelsOverride
;   startingGcode,G28 ; home all axes,G1 Z5 F3000 ; lift,G1 X5 Y10 F1500 ; move to prime,G1 Z0.2 F3000 ; get ready to prime,G92 E0 ; reset extrusion distance,G1 Y80 E10 F600 ; prime nozzle,G1 Y100 F5000 ; quick wipe
;   layerChangeGcode,
;   retractionGcode,
;   toolChangeGcode,
;   endingGcode,G28 X0 ; home x axis,M106 S0 ; turn off cooling fan,M104 S0 ; turn off extruder,M140 S0 ; turn off bed,M84 ; disable motors
;   createX3G,0
;   celebration,0
;   celebrationSong,Funky Town
;   createMB5G,0
;   postProcessing,
;   defaultSpeed,2700
;   outlineUnderspeed,0.5
;   solidInfillUnderspeed,0.8
;   supportUnderspeed,0.8
;   rapidXYspeed,4800
;   rapidZspeed,1002
;   minBridgingArea,50
;   bridgingExtraInflation,0
;   bridgingExtrusionMultiplier,1
;   bridgingSpeedMultiplier,1
;   filamentDiameter,1.75
;   filamentPricePerKg,20
;   filamentDensity,1.25
;   useMinPrintHeight,0
;   minPrintHeight,0
;   useMaxPrintHeight,0
;   maxPrintHeight,0
;   useDiaphragm,0
;   diaphragmLayerInterval,20
;   robustSlicing,1
;   mergeAllIntoSolid,0
;   onlyRetractWhenCrossingOutline,1
;   retractBetweenLayers,1
;   useRetractionMinTravel,0
;   retractionMinTravel,3
;   retractWhileWiping,0
;   onlyWipeOutlines,1
;   avoidCrossingOutline,1
;   maxMovementDetourFactor,3
;   toolChangeRetractionDistance,12
;   toolChangeExtraRestartDistance,-0.5
;   toolChangeRetractionSpeed,600
;   allowThinWallGapFill,1
;   thinWallAllowedOverlapPercentage,10
;   horizontalSizeCompensation,0
G90
M82
M106 S0
M140 S65
M190 S65
M104 S215 T0
M109 S215 T0
G28 ; home all axes
G1 Z5 F3000 ; lift
G1 X5 Y10 F1500 ; move to prime
G1 Z0.2 F3000 ; get ready to prime
G92 E0 ; reset extrusion distance
G1 Y80 E10 F600 ; prime nozzle
G1 Y100 F5000 ; quick wipe
G92 E0
G1 E-5.5000 F1800
G1 Z1.300 F1002
; layer 1, Z = 0.3
T0
; tool H0.300 W0.378
; skirt
G1 X82.504 Y63.670 F4800
G1 Z0.300 F1002
G1 E0.0000 F540
G92 E0
G1 X83.040 Y63.017 E0.0398 F1080
G1 X83.058 Y62.998 E0.0411
G1 X83.215 Y62.841 E0.0515
G1 X83.235 Y62.823 E0.0528
G1 X83.883 Y62.291 E0.0923
G1 X83.905 Y62.275 E0.0936
G1 X84.091 Y62.150 E0.1042
G1 X84.114 Y62.136 E0.1054
G1 X84.874 Y61.732 E0.1460
G1 X84.898 Y61.720 E0.1473
G1 X85.103 Y61.636 E0.1577
G1 X85.128 Y61.627 E0.1590
G1 X85.923 Y61.386 E0.1982
G1 X85.949 Y61.380 E0.1994
G1 X86.166 Y61.336 E0.2098
G1 X86.192 Y61.332 E0.2111
G1 X87.034 Y61.249 E0.2510
G1 X87.060 Y61.247 E0.2522
G1 X87.284 Y61.247 E0.2627
G1 X87.310 Y61.249 E0.2640
G1 X87.882 Y61.305 E0.2911
G1 X88.153 Y61.331 E0.3039
G1 X88.179 Y61.335 E0.3052
G1 X88.398 Y61.379 E0.3157
G1 X88.424 Y61.385 E0.3170
G1 X89.181 Y61.614 E0.3542
G1 X89.193 Y61.619 E0.3549
G1 X89.299 Y61.656 E0.3601
G1 X89.311 Y61.661 E0.3608
G1 X124.614 Y76.284 E2.1623
G1 X124.626 Y76.289 E2.1629
G1 X124.727 Y76.337 E2.1682
G1 X124.739 Y76.343 E2.1688
G1 X125.438 Y76.717 E2.2062
G1 X125.461 Y76.731 E2.2075
G1 X125.647 Y76.855 E2.2180
G1 X125.668 Y76.871 E2.2192
G1 X126.320 Y77.407 E2.2590
G1 X126.340 Y77.425 E2.2603
G1 X126.497 Y77.582 E2.2708
G1 X126.515 Y77.602 E2.2720
G1 X127.046 Y78.249 E2.3115
G1 X127.062 Y78.270 E2.3127
G1 X127.185 Y78.454 E2.3232
G1 X127.198 Y78.477 E2.3244
G1 X127.599 Y79.224 E2.3644
G1 X127.611 Y79.248 E2.3657
G1 X127.698 Y79.459 E2.3764
G1 X127.707 Y79.484 E2.3777
G1 X127.955 Y80.311 E2.4184
G1 X127.962 Y80.336 E2.4196
G1 X128.004 Y80.553 E2.4300
G1 X128.008 Y80.579 E2.4312
G1 X128.089 Y81.403 E2.4703
G1 X128.090 Y81.429 E2.4715
G1 X128.090 Y81.651 E2.4820
G1 X128.089 Y81.677 E2.4832
G1 X128.007 Y82.518 E2.5230
G1 X128.003 Y82.544 E2.5243
G1 X127.960 Y82.763 E2.5348
G1 X127.953 Y82.789 E2.5361
G1 X127.902 Y82.959 E2.5444
G1 X129.370 Y93.424 E3.0427
G1 X129.371 Y93.437 E3.0433
G1 X129.381 Y93.543 E3.0483
G1 X129.382 Y93.556 E3.0489
G1 X129.447 Y94.980 E3.1161
G1 X129.447 Y94.993 E3.1168
G1 X129.447 Y95.104 E3.1220
G1 X129.446 Y95.117 E3.1226
G1 X129.372 Y96.543 E3.1899
G1 X129.371 Y96.556 E3.1905
G1 X129.360 Y96.666 E3.1957
G1 X129.358 Y96.679 E3.1964
G1 X129.146 Y98.091 E3.2637
G1 X129.143 Y98.104 E3.2643
G1 X129.122 Y98.212 E3.2695
G1 X129.119 Y98.225 E3.2701
G1 X128.770 Y99.609 E3.3374
G1 X128.767 Y99.622 E3.3381
G1 X128.734 Y99.728 E3.3433
G1 X128.730 Y99.740 E3.3439
G1 X128.249 Y101.084 E3.4112
G1 X128.244 Y101.097 E3.4118
G1 X128.202 Y101.199 E3.4170
G1 X128.196 Y101.211 E3.4176
G1 X127.586 Y102.502 E3.4850
G1 X127.581 Y102.513 E3.4856
G1 X127.529 Y102.611 E3.4908
G1 X127.522 Y102.622 E3.4914
G1 X126.790 Y103.848 E3.5587
G1 X126.783 Y103.859 E3.5593
G1 X126.721 Y103.951 E3.5645
G1 X126.714 Y103.962 E3.5652
G1 X125.866 Y105.110 E3.6325
G1 X125.858 Y105.121 E3.6331
G1 X125.788 Y105.206 E3.6383
G1 X125.779 Y105.216 E3.6389
G1 X125.298 Y105.751 E3.6728
G1 X150.571 Y142.810 E5.7877
G1 X150.617 Y142.936 E5.7940
G1 X150.735 Y144.077 E5.8481
G1 X150.716 Y144.210 E5.8544
G1 X148.189 Y150.311 E6.1658
G1 X148.129 Y150.400 E6.1708
G1 X147.492 Y151.037 E6.2133
G1 X147.403 Y151.097 E6.2183
G1 X128.970 Y158.732 E7.1590
G1 X128.866 Y158.753 E7.1640
G1 X127.964 Y158.753 E7.2065
G1 X127.859 Y158.732 E7.2115
G1 X110.109 Y151.380 E8.1173
G1 X110.016 Y151.315 E8.1227
G1 X109.352 Y150.616 E8.1681
G1 X109.293 Y150.519 E8.1735
G1 X96.791 Y115.191 E9.9403
G1 X96.359 Y114.147 E9.9936
G1 X95.852 Y113.212 E10.0437
G1 X95.250 Y112.336 E10.0938
G1 X94.559 Y111.527 E10.1440
G1 X93.788 Y110.795 E10.1941
G1 X92.944 Y110.148 E10.2442
G1 X92.038 Y109.592 E10.2944
G1 X91.018 Y109.106 E10.3476
G1 X72.786 Y101.554 E11.2780
G1 X72.774 Y101.549 E11.2786
G1 X72.673 Y101.501 E11.2839
G1 X72.661 Y101.495 E11.2845
G1 X71.962 Y101.121 E11.3219
G1 X71.939 Y101.107 E11.3232
G1 X71.754 Y100.983 E11.3337
G1 X71.733 Y100.967 E11.3349
G1 X71.080 Y100.431 E11.3747
G1 X71.061 Y100.413 E11.3760
G1 X70.904 Y100.256 E11.3865
G1 X70.886 Y100.236 E11.3877
G1 X70.355 Y99.589 E11.4272
G1 X70.339 Y99.568 E11.4284
G1 X70.216 Y99.384 E11.4389
G1 X70.202 Y99.361 E11.4401
G1 X69.801 Y98.614 E11.4801
G1 X69.790 Y98.590 E11.4814
G1 X69.703 Y98.380 E11.4921
G1 X69.694 Y98.354 E11.4934
G1 X69.445 Y97.527 E11.5341
G1 X69.439 Y97.502 E11.5353
G1 X69.396 Y97.285 E11.5457
G1 X69.392 Y97.259 E11.5469
G1 X69.312 Y96.435 E11.5860
G1 X69.310 Y96.409 E11.5872
G1 X69.310 Y96.187 E11.5977
G1 X69.312 Y96.161 E11.5989
G1 X69.394 Y95.320 E11.6387
G1 X69.398 Y95.294 E11.6400
G1 X69.441 Y95.075 E11.6505
G1 X69.447 Y95.049 E11.6518
G1 X69.677 Y94.291 E11.6891
G1 X69.681 Y94.278 E11.6898
G1 X69.719 Y94.173 E11.6950
G1 X69.724 Y94.160 E11.6957
G1 X81.921 Y64.717 E13.1982
G1 X81.926 Y64.705 E13.1988
G1 X81.974 Y64.604 E13.2041
G1 X81.980 Y64.592 E13.2047
G1 X82.350 Y63.900 E13.2417
G1 X82.364 Y63.877 E13.2430
G1 X82.392 Y63.835 E13.2454
G1 X82.488 Y63.691 F1080
G1 X82.504 Y63.670 F1080
G1 X82.788 Y63.891 F4800
G92 E0
G1 X83.313 Y63.253 E0.0390 F1080
G1 X83.318 Y63.246 E0.0394
G1 X83.463 Y63.102 E0.0490
G1 X83.470 Y63.096 E0.0495
G1 X84.105 Y62.575 E0.0882
G1 X84.112 Y62.569 E0.0886
G1 X84.284 Y62.454 E0.0984
G1 X84.291 Y62.450 E0.0988
G1 X85.036 Y62.053 E0.1385
G1 X85.044 Y62.050 E0.1389
G1 X85.233 Y61.972 E0.1486
G1 X85.241 Y61.969 E0.1490
G1 X86.019 Y61.733 E0.1873
G1 X86.028 Y61.731 E0.1877
G1 X86.228 Y61.691 E0.1974
G1 X86.236 Y61.690 E0.1978
G1 X87.060 Y61.608 E0.2368
G1 X87.069 Y61.607 E0.2372
G1 X87.275 Y61.607 E0.2469
G1 X87.284 Y61.608 E0.2474
G1 X87.847 Y61.663 E0.2740
G1 X88.109 Y61.689 E0.2864
G1 X88.118 Y61.690 E0.2869
G1 X88.319 Y61.730 E0.2966
G1 X88.328 Y61.732 E0.2970
G1 X89.072 Y61.958 E0.3336
G1 X89.076 Y61.959 E0.3338
G1 X89.173 Y61.994 E0.3387
G1 X89.177 Y61.995 E0.3389
G1 X124.472 Y76.615 E2.1400
G1 X124.476 Y76.617 E2.1402
G1 X124.569 Y76.661 E2.1451
G1 X124.573 Y76.663 E2.1453
G1 X125.261 Y77.031 E2.1820
G1 X125.268 Y77.035 E2.1825
G1 X125.439 Y77.149 E2.1922
G1 X125.446 Y77.155 E2.1926
G1 X126.085 Y77.680 E2.2315
G1 X126.091 Y77.686 E2.2320
G1 X126.236 Y77.830 E2.2416
G1 X126.242 Y77.837 E2.2420
G1 X126.762 Y78.471 E2.2807
G1 X126.767 Y78.478 E2.2811
G1 X126.881 Y78.647 E2.2907
G1 X126.885 Y78.655 E2.2911
G1 X127.278 Y79.386 E2.3302
G1 X127.281 Y79.394 E2.3307
G1 X127.362 Y79.588 E2.3406
G1 X127.365 Y79.596 E2.3410
G1 X127.608 Y80.406 E2.3808
G1 X127.610 Y80.415 E2.3813
G1 X127.649 Y80.614 E2.3908
G1 X127.651 Y80.622 E2.3912
G1 X127.730 Y81.429 E2.4295
G1 X127.730 Y81.438 E2.4299
G1 X127.730 Y81.642 E2.4395
G1 X127.730 Y81.651 E2.4399
G1 X127.649 Y82.474 E2.4789
G1 X127.648 Y82.483 E2.4793
G1 X127.608 Y82.684 E2.4890
G1 X127.606 Y82.693 E2.4894
G1 X127.534 Y82.930 E2.5011
G1 X129.013 Y93.470 E3.0029
G1 X129.013 Y93.474 E3.0031
G1 X129.022 Y93.572 E3.0077
G1 X129.023 Y93.576 E3.0079
G1 X129.087 Y94.992 E3.0748
G1 X129.087 Y94.997 E3.0750
G1 X129.087 Y95.098 E3.0798
G1 X129.086 Y95.103 E3.0800
G1 X129.013 Y96.520 E3.1469
G1 X129.012 Y96.524 E3.1471
G1 X129.002 Y96.625 E3.1519
G1 X129.002 Y96.630 E3.1521
G1 X128.790 Y98.033 E3.2190
G1 X128.790 Y98.037 E3.2192
G1 X128.770 Y98.137 E3.2240
G1 X128.769 Y98.141 E3.2242
G1 X128.422 Y99.517 E3.2911
G1 X128.421 Y99.522 E3.2913
G1 X128.391 Y99.619 E3.2961
G1 X128.390 Y99.623 E3.2963
G1 X127.911 Y100.959 E3.3632
G1 X127.910 Y100.963 E3.3634
G1 X127.871 Y101.057 E3.3682
G1 X127.869 Y101.061 E3.3684
G1 X127.263 Y102.344 E3.4353
G1 X127.261 Y102.348 E3.4355
G1 X127.213 Y102.438 E3.4403
G1 X127.211 Y102.441 E3.4405
G1 X126.483 Y103.659 E3.5074
G1 X126.481 Y103.663 E3.5076
G1 X126.424 Y103.748 E3.5124
G1 X126.422 Y103.751 E3.5126
G1 X125.579 Y104.893 E3.5795
G1 X125.576 Y104.896 E3.5797
G1 X125.512 Y104.975 E3.5845
G1 X125.509 Y104.979 E3.5847
G1 X124.841 Y105.720 E3.6318
G1 X150.249 Y142.976 E5.7578
G1 X150.264 Y143.018 E5.7599
G1 X150.372 Y144.069 E5.8098
G1 X150.366 Y144.114 E5.8119
G1 X147.870 Y150.141 E6.1194
G1 X147.850 Y150.170 E6.1211
G1 X147.262 Y150.758 E6.1603
G1 X147.233 Y150.778 E6.1620
G1 X128.865 Y158.386 E7.0993
G1 X128.830 Y158.393 E7.1010
G1 X127.999 Y158.393 E7.1401
G1 X127.964 Y158.386 E7.1418
G1 X110.282 Y151.061 E8.0442
G1 X110.251 Y151.040 E8.0459
G1 X109.639 Y150.396 E8.0878
G1 X109.619 Y150.363 E8.0896
G1 X97.128 Y115.062 E9.8551
G1 X96.684 Y113.992 E9.9097
G1 X96.159 Y113.024 E9.9616
G1 X95.536 Y112.117 E10.0135
G1 X94.821 Y111.279 E10.0654
G1 X94.022 Y110.521 E10.1173
G1 X93.149 Y109.851 E10.1692
G1 X92.210 Y109.275 E10.2212
G1 X91.164 Y108.777 E10.2758
G1 X72.928 Y101.223 E11.2064
G1 X72.924 Y101.221 E11.2066
G1 X72.831 Y101.177 E11.2114
G1 X72.827 Y101.175 E11.2116
G1 X72.140 Y100.808 E11.2484
G1 X72.132 Y100.803 E11.2488
G1 X71.961 Y100.689 E11.2585
G1 X71.954 Y100.683 E11.2589
G1 X71.316 Y100.158 E11.2979
G1 X71.309 Y100.152 E11.2983
G1 X71.165 Y100.008 E11.3079
G1 X71.159 Y100.001 E11.3084
G1 X70.638 Y99.367 E11.3470
G1 X70.633 Y99.360 E11.3474
G1 X70.520 Y99.191 E11.3570
G1 X70.515 Y99.183 E11.3575
G1 X70.123 Y98.452 E11.3966
G1 X70.119 Y98.444 E11.3970
G1 X70.039 Y98.250 E11.4069
G1 X70.036 Y98.242 E11.4073
G1 X69.793 Y97.432 E11.4472
G1 X69.790 Y97.424 E11.4476
G1 X69.751 Y97.224 E11.4572
G1 X69.750 Y97.216 E11.4576
G1 X69.671 Y96.409 E11.4958
G1 X69.670 Y96.400 E11.4962
G1 X69.670 Y96.196 E11.5059
G1 X69.671 Y96.187 E11.5063
G1 X69.751 Y95.364 E11.5452
G1 X69.752 Y95.356 E11.5457
G1 X69.792 Y95.154 E11.5553
G1 X69.795 Y95.145 E11.5558
G1 X70.020 Y94.399 E11.5925
G1 X70.022 Y94.395 E11.5927
G1 X70.057 Y94.298 E11.5976
G1 X70.058 Y94.294 E11.5978
G1 X82.251 Y64.859 E13.0999
G1 X82.253 Y64.855 E13.1001
G1 X82.297 Y64.762 E13.1049
G1 X82.299 Y64.758 E13.1052
G1 X82.663 Y64.077 E13.1416
G1 X82.668 Y64.070 E13.1420
G1 X82.676 Y64.057 E13.1427
G1 X82.782 Y63.899 F1080
G1 X82.788 Y63.891 F1080
; inner perimeter
G1 X85.326 Y65.725 F4800
G92 E0
G1 X85.603 Y65.388 E0.0206 F900
G1 X85.936 Y65.114 E0.0409
G1 X86.322 Y64.907 E0.0615
G1 X86.740 Y64.780 E0.0821
G1 X87.174 Y64.737 E0.1027
