; G-Code generated by Simplify3D(R) Version 3.0.2
; Jun 15, 2022 at 11:57:00 PM
; Settings Summary
;   processName,Process1
;   applyToModels,stepper holder
;   profileName,Ender 3 (modified)
;   profileVersion,2022-03-25 00:06:10
;   baseProfile,Creality CR-10 Mini
;   printMaterial,PLA
;   printQuality,Medium
;   printExtruders,
;   extruderName,Primary Extruder
;   extruderToolheadNumber,0
;   extruderDiameter,0.4
;   extruderAutoWidth,0
;   extruderWidth,0.36
;   extrusionMultiplier,1
;   extruderUseRetract,1
;   extruderRetractionDistance,5.5
;   extruderExtraRestartDistance,0
;   extruderRetractionZLift,1
;   extruderRetractionSpeed,1800
;   extruderUseCoasting,1
;   extruderCoastingDistance,0.2
;   extruderUseWipe,1
;   extruderWipeDistance,5
;   primaryExtruder,0
;   layerHeight,0.25
;   topSolidLayers,3
;   bottomSolidLayers,3
;   perimeterOutlines,3
;   printPerimetersInsideOut,1
;   startPointOption,2
;   startPointOriginX,0
;   startPointOriginY,110
;   startPointOriginZ,300
;   sequentialIslands,0
;   spiralVaseMode,0
;   firstLayerHeightPercentage,120
;   firstLayerWidthPercentage,105
;   firstLayerUnderspeed,0.4
;   useRaft,0
;   raftExtruder,0
;   raftLayers,3
;   raftOffset,3
;   raftSeparationDistance,0.14
;   raftInfill,85
;   disableRaftBaseLayers,0
;   useSkirt,1
;   skirtExtruder,0
;   skirtLayers,2
;   skirtOutlines,2
;   skirtOffset,2
;   usePrimePillar,0
;   primePillarExtruder,999
;   primePillarWidth,12
;   primePillarLocation,7
;   primePillarSpeedMultiplier,1
;   useOozeShield,0
;   oozeShieldExtruder,999
;   oozeShieldOffset,2
;   oozeShieldOutlines,1
;   oozeShieldSidewallShape,1
;   oozeShieldSidewallAngle,30
;   oozeShieldSpeedMultiplier,1
;   infillExtruder,0
;   internalInfillPattern,Rectilinear
;   externalInfillPattern,Rectilinear
;   infillPercentage,15
;   outlineOverlapPercentage,15
;   infillExtrusionWidthPercentage,100
;   minInfillLength,5
;   infillLayerInterval,1
;   infillAngles,45,-45
;   overlapInfillAngles,0
;   generateSupport,0
;   supportExtruder,0
;   supportInfillPercentage,15
;   supportExtraInflation,1
;   denseSupportLayers,2
;   denseSupportInfillPercentage,70
;   supportLayerInterval,1
;   supportHorizontalPartOffset,0.3
;   supportUpperSeparationLayers,1
;   supportLowerSeparationLayers,1
;   supportType,0
;   supportGridSpacing,4
;   maxOverhangAngle,50
;   supportAngles,45
;   temperatureName,Primary Extruder,Heated Bed
;   temperatureNumber,0,0
;   temperatureSetpointCount,2,1
;   temperatureSetpointLayers,1,1,1
;   temperatureSetpointTemperatures,215,210,65
;   temperatureStabilizeAtStartup,1,1
;   temperatureHeatedBed,0,1
;   temperatureRelayBetweenLayers,0,0
;   temperatureRelayBetweenLoops,0,0
;   fanLayers,1,2
;   fanSpeeds,0,100
;   blipFanToFullPower,0
;   adjustSpeedForCooling,1
;   minSpeedLayerTime,15
;   minCoolingSpeedSlowdown,20
;   increaseFanForCooling,0
;   minFanLayerTime,45
;   maxCoolingFanSpeed,100
;   increaseFanForBridging,0
;   bridgingFanSpeed,100
;   use5D,1
;   relativeEdistances,0
;   allowEaxisZeroing,1
;   independentExtruderAxes,0
;   includeM10123,0
;   stickySupport,1
;   applyToolheadOffsets,0
;   gcodeXoffset,0
;   gcodeYoffset,0
;   gcodeZoffset,0
;   overrideMachineDefinition,1
;   machineTypeOverride,0
;   strokeXoverride,220
;   strokeYoverride,220
;   strokeZoverride,250
;   originOffsetXoverride,0
;   originOffsetYoverride,0
;   originOffsetZoverride,0
;   homeXdirOverride,-1
;   homeYdirOverride,-1
;   homeZdirOverride,-1
;   flipXoverride,1
;   flipYoverride,-1
;   flipZoverride,1
;   toolheadOffsets,0,0|0,0|0,0|0,0|0,0|0,0
;   overrideFirmwareConfiguration,1
;   firmwareTypeOverride,RepRap (Marlin/Repetier/Sprinter)
;   GPXconfigOverride,r2
;   baudRateOverride,115200
;   overridePrinterModels,1
;   printerModelsOverride
;   startingGcode,G28 ; home all axes,G1 Z5 F3000 ; lift,G1 X5 Y10 F1500 ; move to prime,G1 Z0.2 F3000 ; get ready to prime,G92 E0 ; reset extrusion distance,G1 Y80 E10 F600 ; prime nozzle,G1 Y100 F5000 ; quick wipe
;   layerChangeGcode,
;   retractionGcode,
;   toolChangeGcode,
;   endingGcode,G28 X0 ; home x axis,M106 S0 ; turn off cooling fan,M104 S0 ; turn off extruder,M140 S0 ; turn off bed,M84 ; disable motors
;   createX3G,0
;   celebration,0
;   celebrationSong,Funky Town
;   createMB5G,0
;   postProcessing,
;   defaultSpeed,2700
;   outlineUnderspeed,0.5
;   solidInfillUnderspeed,0.8
;   supportUnderspeed,0.8
;   rapidXYspeed,4800
;   rapidZspeed,1002
;   minBridgingArea,50
;   bridgingExtraInflation,0
;   bridgingExtrusionMultiplier,1
;   bridgingSpeedMultiplier,1
;   filamentDiameter,1.75
;   filamentPricePerKg,20
;   filamentDensity,1.25
;   useMinPrintHeight,0
;   minPrintHeight,0
;   useMaxPrintHeight,0
;   maxPrintHeight,0
;   useDiaphragm,0
;   diaphragmLayerInterval,20
;   robustSlicing,1
;   mergeAllIntoSolid,0
;   onlyRetractWhenCrossingOutline,1
;   retractBetweenLayers,1
;   useRetractionMinTravel,0
;   retractionMinTravel,3
;   retractWhileWiping,0
;   onlyWipeOutlines,1
;   avoidCrossingOutline,1
;   maxMovementDetourFactor,3
;   toolChangeRetractionDistance,12
;   toolChangeExtraRestartDistance,-0.5
;   toolChangeRetractionSpeed,600
;   allowThinWallGapFill,1
;   thinWallAllowedOverlapPercentage,10
;   horizontalSizeCompensation,0
G90
M82
M106 S0
M140 S65
M190 S65
M104 S215 T0
M109 S215 T0
G28 ; home all axes
G1 Z5 F3000 ; lift
G1 X5 Y10 F1500 ; move to prime
G1 Z0.2 F3000 ; get ready to prime
G92 E0 ; reset extrusion distance
G1 Y80 E10 F600 ; prime nozzle
G1 Y100 F5000 ; quick wipe
G92 E0
G1 E-5.5000 F1800
G1 Z1.300 F1002
; layer 1, Z = 0.3
T0
; tool H0.300 W0.378
; skirt
G1 X84.693 Y78.962 F4800
G1 Z0.300 F1002
G1 E0.0000 F540
G92 E0
G1 X85.312 Y78.343 E0.0413 F1080
G1 X85.326 Y78.330 E0.0422
G1 X85.449 Y78.224 E0.0498
G1 X85.464 Y78.211 E0.0507
G1 X86.165 Y77.687 E0.0920
G1 X86.180 Y77.676 E0.0929
G1 X86.317 Y77.588 E0.1006
G1 X86.333 Y77.578 E0.1015
G1 X87.102 Y77.159 E0.1428
G1 X87.119 Y77.150 E0.1437
G1 X87.266 Y77.083 E0.1513
G1 X87.284 Y77.075 E0.1522
G1 X88.105 Y76.769 E0.1935
G1 X88.123 Y76.763 E0.1944
G1 X88.278 Y76.718 E0.2020
G1 X88.297 Y76.713 E0.2030
G1 X89.153 Y76.527 E0.2442
G1 X89.172 Y76.523 E0.2451
G1 X89.332 Y76.500 E0.2528
G1 X89.351 Y76.498 E0.2537
G1 X90.184 Y76.439 E0.2931
G1 X90.194 Y76.438 E0.2935
G1 X90.275 Y76.435 E0.2973
G1 X90.284 Y76.435 E0.2978
G1 X129.716 Y76.435 E2.1568
G1 X129.725 Y76.435 E2.1573
G1 X129.806 Y76.438 E2.1611
G1 X129.816 Y76.439 E2.1616
G1 X130.649 Y76.498 E2.2009
G1 X130.668 Y76.500 E2.2018
G1 X130.828 Y76.523 E2.2095
G1 X130.847 Y76.527 E2.2104
G1 X131.703 Y76.713 E2.2517
G1 X131.721 Y76.718 E2.2526
G1 X131.877 Y76.763 E2.2602
G1 X131.895 Y76.769 E2.2611
G1 X132.716 Y77.075 E2.3024
G1 X132.733 Y77.083 E2.3033
G1 X132.881 Y77.150 E2.3110
G1 X132.898 Y77.159 E2.3119
G1 X133.667 Y77.578 E2.3531
G1 X133.683 Y77.588 E2.3540
G1 X133.820 Y77.676 E2.3617
G1 X133.835 Y77.687 E2.3626
G1 X134.536 Y78.211 E2.4039
G1 X134.551 Y78.224 E2.4048
G1 X134.674 Y78.330 E2.4124
G1 X134.688 Y78.343 E2.4133
G1 X135.307 Y78.962 E2.4546
G1 X135.320 Y78.976 E2.4555
G1 X135.426 Y79.099 E2.4632
G1 X135.439 Y79.114 E2.4641
G1 X135.963 Y79.815 E2.5054
G1 X135.974 Y79.830 E2.5063
G1 X136.062 Y79.967 E2.5139
G1 X136.072 Y79.983 E2.5148
G1 X136.491 Y80.752 E2.5561
G1 X136.500 Y80.769 E2.5570
G1 X136.567 Y80.917 E2.5647
G1 X136.575 Y80.934 E2.5656
G1 X136.881 Y81.755 E2.6068
G1 X136.887 Y81.773 E2.6077
G1 X136.932 Y81.928 E2.6154
G1 X136.937 Y81.947 E2.6163
G1 X137.123 Y82.803 E2.6576
G1 X137.127 Y82.822 E2.6585
G1 X137.150 Y82.982 E2.6661
G1 X137.152 Y83.001 E2.6670
G1 X137.211 Y83.834 E2.7064
G1 X137.212 Y83.844 E2.7069
G1 X137.215 Y83.925 E2.7107
G1 X137.215 Y83.934 E2.7111
G1 X137.215 Y123.366 E4.5702
G1 X137.215 Y123.375 E4.5706
G1 X137.212 Y123.456 E4.5744
G1 X137.211 Y123.466 E4.5749
G1 X137.152 Y124.299 E4.6143
G1 X137.150 Y124.318 E4.6152
G1 X137.127 Y124.478 E4.6228
G1 X137.123 Y124.497 E4.6237
G1 X136.937 Y125.353 E4.6650
G1 X136.932 Y125.371 E4.6659
G1 X136.887 Y125.527 E4.6736
G1 X136.881 Y125.545 E4.6745
G1 X136.575 Y126.366 E4.7157
G1 X136.567 Y126.383 E4.7167
G1 X136.500 Y126.531 E4.7243
G1 X136.491 Y126.548 E4.7252
G1 X136.072 Y127.317 E4.7665
G1 X136.062 Y127.333 E4.7674
G1 X135.974 Y127.470 E4.7750
G1 X135.963 Y127.485 E4.7759
G1 X135.439 Y128.186 E4.8172
G1 X135.426 Y128.201 E4.8181
G1 X135.320 Y128.324 E4.8258
G1 X135.307 Y128.338 E4.8267
G1 X134.688 Y128.957 E4.8680
G1 X134.674 Y128.970 E4.8689
G1 X134.551 Y129.076 E4.8765
G1 X134.536 Y129.089 E4.8774
G1 X133.835 Y129.613 E4.9187
G1 X133.820 Y129.624 E4.9196
G1 X133.683 Y129.712 E4.9273
G1 X133.667 Y129.722 E4.9282
G1 X132.898 Y130.141 E4.9694
G1 X132.881 Y130.150 E4.9704
G1 X132.733 Y130.217 E4.9780
G1 X132.716 Y130.225 E4.9789
G1 X131.895 Y130.531 E5.0202
G1 X131.877 Y130.537 E5.0211
G1 X131.721 Y130.582 E5.0287
G1 X131.703 Y130.587 E5.0296
G1 X130.847 Y130.773 E5.0709
G1 X130.828 Y130.777 E5.0718
G1 X130.668 Y130.800 E5.0795
G1 X130.649 Y130.802 E5.0804
G1 X129.816 Y130.861 E5.1198
G1 X129.806 Y130.862 E5.1202
G1 X129.725 Y130.865 E5.1240
G1 X129.716 Y130.865 E5.1245
G1 X125.958 Y130.865 E5.3016
G1 X125.378 Y130.903 E5.3290
G1 X124.890 Y131.000 E5.3525
G1 X124.419 Y131.160 E5.3759
G1 X123.973 Y131.380 E5.3994
G1 X123.559 Y131.657 E5.4229
G1 X123.185 Y131.985 E5.4463
G1 X122.857 Y132.359 E5.4698
G1 X122.580 Y132.773 E5.4933
G1 X122.360 Y133.219 E5.5167
G1 X122.200 Y133.690 E5.5402
G1 X122.103 Y134.178 E5.5636
G1 X122.065 Y134.751 E5.5907
G1 X122.065 Y141.961 E5.9306
G1 X121.983 Y142.159 E5.9408
G1 X120.659 Y143.483 E6.0290
G1 X120.461 Y143.565 E6.0391
G1 X99.539 Y143.565 E7.0255
G1 X99.341 Y143.483 E7.0356
G1 X98.017 Y142.159 E7.1239
G1 X97.935 Y141.961 E7.1340
G1 X97.935 Y134.758 E7.4736
G1 X97.897 Y134.178 E7.5010
G1 X97.800 Y133.690 E7.5244
G1 X97.640 Y133.219 E7.5479
G1 X97.420 Y132.773 E7.5714
G1 X97.143 Y132.359 E7.5948
G1 X96.815 Y131.985 E7.6183
G1 X96.441 Y131.657 E7.6417
G1 X96.027 Y131.380 E7.6652
G1 X95.581 Y131.160 E7.6887
G1 X95.110 Y131.000 E7.7121
G1 X94.622 Y130.903 E7.7356
G1 X94.049 Y130.865 E7.7626
G1 X90.284 Y130.865 E7.9401
G1 X90.275 Y130.865 E7.9406
G1 X90.194 Y130.862 E7.9444
G1 X90.184 Y130.861 E7.9449
G1 X89.351 Y130.802 E7.9842
G1 X89.332 Y130.800 E7.9851
G1 X89.172 Y130.777 E7.9928
G1 X89.153 Y130.773 E7.9937
G1 X88.297 Y130.587 E8.0350
G1 X88.278 Y130.582 E8.0359
G1 X88.123 Y130.537 E8.0435
G1 X88.105 Y130.531 E8.0444
G1 X87.284 Y130.225 E8.0857
G1 X87.267 Y130.217 E8.0866
G1 X87.119 Y130.150 E8.0943
G1 X87.102 Y130.141 E8.0952
G1 X86.333 Y129.722 E8.1364
G1 X86.317 Y129.712 E8.1374
G1 X86.180 Y129.624 E8.1450
G1 X86.165 Y129.613 E8.1459
G1 X85.464 Y129.089 E8.1872
G1 X85.449 Y129.076 E8.1881
G1 X85.326 Y128.970 E8.1957
G1 X85.312 Y128.957 E8.1967
G1 X84.693 Y128.338 E8.2379
G1 X84.680 Y128.324 E8.2388
G1 X84.574 Y128.201 E8.2465
G1 X84.561 Y128.186 E8.2474
G1 X84.037 Y127.485 E8.2887
G1 X84.026 Y127.470 E8.2896
G1 X83.938 Y127.333 E8.2972
G1 X83.928 Y127.317 E8.2981
G1 X83.509 Y126.548 E8.3394
G1 X83.500 Y126.531 E8.3403
G1 X83.433 Y126.383 E8.3480
G1 X83.425 Y126.366 E8.3489
G1 X83.119 Y125.545 E8.3901
G1 X83.113 Y125.527 E8.3911
G1 X83.068 Y125.371 E8.3987
G1 X83.063 Y125.353 E8.3996
G1 X82.877 Y124.497 E8.4409
G1 X82.873 Y124.478 E8.4418
G1 X82.850 Y124.318 E8.4494
G1 X82.848 Y124.299 E8.4504
G1 X82.789 Y123.466 E8.4897
G1 X82.788 Y123.456 E8.4902
G1 X82.785 Y123.375 E8.4940
G1 X82.785 Y123.366 E8.4944
G1 X82.785 Y83.934 E10.3535
G1 X82.785 Y83.925 E10.3539
G1 X82.788 Y83.844 E10.3578
G1 X82.789 Y83.834 E10.3582
G1 X82.848 Y83.001 E10.3976
G1 X82.850 Y82.982 E10.3985
G1 X82.873 Y82.822 E10.4061
G1 X82.877 Y82.803 E10.4070
G1 X83.063 Y81.947 E10.4483
G1 X83.068 Y81.928 E10.4492
G1 X83.113 Y81.773 E10.4569
G1 X83.119 Y81.755 E10.4578
G1 X83.425 Y80.934 E10.4991
G1 X83.433 Y80.917 E10.5000
G1 X83.500 Y80.769 E10.5076
G1 X83.509 Y80.752 E10.5085
G1 X83.928 Y79.983 E10.5498
G1 X83.938 Y79.967 E10.5507
G1 X84.026 Y79.830 E10.5583
G1 X84.037 Y79.815 E10.5593
G1 X84.561 Y79.114 E10.6005
G1 X84.562 Y79.113 E10.6006
G1 X84.574 Y79.099 F1080
G1 X84.680 Y78.976 F1080
G1 X84.693 Y78.962 F1080
G1 X84.952 Y79.212 F4800
G92 E0
G1 X85.562 Y78.602 E0.0407 F1080
G1 X85.567 Y78.598 E0.0410
G1 X85.680 Y78.500 E0.0480
G1 X85.685 Y78.496 E0.0483
G1 X86.375 Y77.979 E0.0890
G1 X86.380 Y77.975 E0.0893
G1 X86.506 Y77.894 E0.0963
G1 X86.512 Y77.891 E0.0966
G1 X87.269 Y77.478 E0.1373
G1 X87.274 Y77.475 E0.1376
G1 X87.410 Y77.413 E0.1446
G1 X87.416 Y77.410 E0.1449
G1 X88.224 Y77.109 E0.1856
G1 X88.231 Y77.107 E0.1859
G1 X88.374 Y77.065 E0.1930
G1 X88.380 Y77.063 E0.1933
G1 X89.223 Y76.880 E0.2339
G1 X89.229 Y76.879 E0.2342
G1 X89.377 Y76.857 E0.2413
G1 X89.383 Y76.857 E0.2416
G1 X90.207 Y76.798 E0.2805
G1 X90.210 Y76.798 E0.2806
G1 X90.284 Y76.795 E0.2842
G1 X90.288 Y76.795 E0.2843
G1 X129.712 Y76.795 E2.1430
G1 X129.716 Y76.795 E2.1432
G1 X129.790 Y76.798 E2.1467
G1 X129.793 Y76.798 E2.1469
G1 X130.617 Y76.857 E2.1858
G1 X130.623 Y76.857 E2.1861
G1 X130.771 Y76.879 E2.1931
G1 X130.777 Y76.880 E2.1934
G1 X131.620 Y77.063 E2.2341
G1 X131.626 Y77.065 E2.2344
G1 X131.769 Y77.107 E2.2414
G1 X131.776 Y77.109 E2.2417
G1 X132.584 Y77.410 E2.2824
G1 X132.590 Y77.413 E2.2827
G1 X132.726 Y77.475 E2.2897
G1 X132.731 Y77.478 E2.2900
G1 X133.488 Y77.891 E2.3307
G1 X133.494 Y77.894 E2.3310
G1 X133.620 Y77.975 E2.3381
G1 X133.625 Y77.979 E2.3384
G1 X134.315 Y78.496 E2.3790
G1 X134.320 Y78.500 E2.3793
G1 X134.433 Y78.598 E2.3864
G1 X134.438 Y78.602 E2.3867
G1 X135.048 Y79.212 E2.4274
G1 X135.052 Y79.217 E2.4277
G1 X135.150 Y79.330 E2.4347
G1 X135.154 Y79.335 E2.4350
G1 X135.671 Y80.025 E2.4757
G1 X135.675 Y80.030 E2.4760
G1 X135.756 Y80.156 E2.4830
G1 X135.759 Y80.162 E2.4833
G1 X136.172 Y80.919 E2.5240
G1 X136.175 Y80.924 E2.5243
G1 X136.237 Y81.060 E2.5313
G1 X136.240 Y81.066 E2.5316
G1 X136.541 Y81.874 E2.5723
G1 X136.543 Y81.880 E2.5726
G1 X136.585 Y82.024 E2.5796
G1 X136.587 Y82.030 E2.5799
G1 X136.770 Y82.873 E2.6206
G1 X136.771 Y82.879 E2.6209
G1 X136.793 Y83.027 E2.6280
G1 X136.793 Y83.033 E2.6283
G1 X136.852 Y83.857 E2.6672
G1 X136.852 Y83.860 E2.6673
G1 X136.855 Y83.934 E2.6708
G1 X136.855 Y83.938 E2.6710
G1 X136.855 Y123.362 E4.5297
G1 X136.855 Y123.366 E4.5299
G1 X136.852 Y123.440 E4.5334
G1 X136.852 Y123.443 E4.5335
G1 X136.793 Y124.267 E4.5724
G1 X136.793 Y124.273 E4.5728
G1 X136.771 Y124.421 E4.5798
G1 X136.770 Y124.427 E4.5801
G1 X136.587 Y125.270 E4.6208
G1 X136.585 Y125.276 E4.6211
G1 X136.543 Y125.419 E4.6281
G1 X136.541 Y125.426 E4.6284
G1 X136.240 Y126.234 E4.6691
G1 X136.237 Y126.240 E4.6694
G1 X136.175 Y126.376 E4.6764
G1 X136.172 Y126.381 E4.6767
G1 X135.759 Y127.138 E4.7174
G1 X135.756 Y127.144 E4.7177
G1 X135.675 Y127.270 E4.7247
G1 X135.671 Y127.275 E4.7250
G1 X135.154 Y127.965 E4.7657
G1 X135.150 Y127.970 E4.7660
G1 X135.052 Y128.083 E4.7731
G1 X135.048 Y128.088 E4.7734
G1 X134.438 Y128.698 E4.8140
G1 X134.433 Y128.702 E4.8143
G1 X134.321 Y128.800 E4.8214
G1 X134.315 Y128.804 E4.8217
G1 X133.625 Y129.321 E4.8623
G1 X133.620 Y129.325 E4.8627
G1 X133.494 Y129.406 E4.8697
G1 X133.488 Y129.409 E4.8700
G1 X132.731 Y129.822 E4.9107
G1 X132.726 Y129.825 E4.9110
G1 X132.590 Y129.887 E4.9180
G1 X132.584 Y129.890 E4.9183
G1 X131.776 Y130.191 E4.9590
G1 X131.769 Y130.193 E4.9593
G1 X131.626 Y130.235 E4.9663
G1 X131.620 Y130.237 E4.9666
G1 X130.777 Y130.420 E5.0073
G1 X130.771 Y130.421 E5.0076
G1 X130.623 Y130.443 E5.0146
G1 X130.617 Y130.443 E5.0149
G1 X129.793 Y130.502 E5.0539
