; G-Code generated by Simplify3D(R) Version 3.0.2
; Jun 15, 2022 at 11:05:02 PM
; Settings Summary
;   processName,Process1
;   applyToModels,stepper pulley
;   profileName,Ender 3 (modified)
;   profileVersion,2022-03-25 00:06:10
;   baseProfile,Creality CR-10 Mini
;   printMaterial,PLA
;   printQuality,Medium
;   printExtruders,
;   extruderName,Primary Extruder
;   extruderToolheadNumber,0
;   extruderDiameter,0.4
;   extruderAutoWidth,0
;   extruderWidth,0.36
;   extrusionMultiplier,1
;   extruderUseRetract,1
;   extruderRetractionDistance,5.5
;   extruderExtraRestartDistance,0
;   extruderRetractionZLift,1
;   extruderRetractionSpeed,1800
;   extruderUseCoasting,1
;   extruderCoastingDistance,0.2
;   extruderUseWipe,1
;   extruderWipeDistance,5
;   primaryExtruder,0
;   layerHeight,0.25
;   topSolidLayers,3
;   bottomSolidLayers,3
;   perimeterOutlines,3
;   printPerimetersInsideOut,1
;   startPointOption,2
;   startPointOriginX,0
;   startPointOriginY,110
;   startPointOriginZ,300
;   sequentialIslands,0
;   spiralVaseMode,0
;   firstLayerHeightPercentage,120
;   firstLayerWidthPercentage,105
;   firstLayerUnderspeed,0.4
;   useRaft,0
;   raftExtruder,0
;   raftLayers,3
;   raftOffset,3
;   raftSeparationDistance,0.14
;   raftInfill,85
;   disableRaftBaseLayers,0
;   useSkirt,1
;   skirtExtruder,0
;   skirtLayers,2
;   skirtOutlines,2
;   skirtOffset,2
;   usePrimePillar,0
;   primePillarExtruder,999
;   primePillarWidth,12
;   primePillarLocation,7
;   primePillarSpeedMultiplier,1
;   useOozeShield,0
;   oozeShieldExtruder,999
;   oozeShieldOffset,2
;   oozeShieldOutlines,1
;   oozeShieldSidewallShape,1
;   oozeShieldSidewallAngle,30
;   oozeShieldSpeedMultiplier,1
;   infillExtruder,0
;   internalInfillPattern,Rectilinear
;   externalInfillPattern,Rectilinear
;   infillPercentage,15
;   outlineOverlapPercentage,15
;   infillExtrusionWidthPercentage,100
;   minInfillLength,5
;   infillLayerInterval,1
;   infillAngles,45,-45
;   overlapInfillAngles,0
;   generateSupport,0
;   supportExtruder,0
;   supportInfillPercentage,15
;   supportExtraInflation,1
;   denseSupportLayers,2
;   denseSupportInfillPercentage,70
;   supportLayerInterval,1
;   supportHorizontalPartOffset,0.3
;   supportUpperSeparationLayers,1
;   supportLowerSeparationLayers,1
;   supportType,0
;   supportGridSpacing,4
;   maxOverhangAngle,50
;   supportAngles,45
;   temperatureName,Primary Extruder,Heated Bed
;   temperatureNumber,0,0
;   temperatureSetpointCount,2,1
;   temperatureSetpointLayers,1,1,1
;   temperatureSetpointTemperatures,215,210,65
;   temperatureStabilizeAtStartup,1,1
;   temperatureHeatedBed,0,1
;   temperatureRelayBetweenLayers,0,0
;   temperatureRelayBetweenLoops,0,0
;   fanLayers,1,2
;   fanSpeeds,0,100
;   blipFanToFullPower,0
;   adjustSpeedForCooling,1
;   minSpeedLayerTime,15
;   minCoolingSpeedSlowdown,20
;   increaseFanForCooling,0
;   minFanLayerTime,45
;   maxCoolingFanSpeed,100
;   increaseFanForBridging,0
;   bridgingFanSpeed,100
;   use5D,1
;   relativeEdistances,0
;   allowEaxisZeroing,1
;   independentExtruderAxes,0
;   includeM10123,0
;   stickySupport,1
;   applyToolheadOffsets,0
;   gcodeXoffset,0
;   gcodeYoffset,0
;   gcodeZoffset,0
;   overrideMachineDefinition,1
;   machineTypeOverride,0
;   strokeXoverride,220
;   strokeYoverride,220
;   strokeZoverride,250
;   originOffsetXoverride,0
;   originOffsetYoverride,0
;   originOffsetZoverride,0
;   homeXdirOverride,-1
;   homeYdirOverride,-1
;   homeZdirOverride,-1
;   flipXoverride,1
;   flipYoverride,-1
;   flipZoverride,1
;   toolheadOffsets,0,0|0,0|0,0|0,0|0,0|0,0
;   overrideFirmwareConfiguration,1
;   firmwareTypeOverride,RepRap (Marlin/Repetier/Sprinter)
;   GPXconfigOverride,r2
;   baudRateOverride,115200
;   overridePrinterModels,1
;   printerModelsOverride
;   startingGcode,G28 ; home all axes,G1 Z5 F3000 ; lift,G1 X5 Y10 F1500 ; move to prime,G1 Z0.2 F3000 ; get ready to prime,G92 E0 ; reset extrusion distance,G1 Y80 E10 F600 ; prime nozzle,G1 Y100 F5000 ; quick wipe
;   layerChangeGcode,
;   retractionGcode,
;   toolChangeGcode,
;   endingGcode,G28 X0 ; home x axis,M106 S0 ; turn off cooling fan,M104 S0 ; turn off extruder,M140 S0 ; turn off bed,M84 ; disable motors
;   createX3G,0
;   celebration,0
;   celebrationSong,Funky Town
;   createMB5G,0
;   postProcessing,
;   defaultSpeed,2700
;   outlineUnderspeed,0.5
;   solidInfillUnderspeed,0.8
;   supportUnderspeed,0.8
;   rapidXYspeed,4800
;   rapidZspeed,1002
;   minBridgingArea,50
;   bridgingExtraInflation,0
;   bridgingExtrusionMultiplier,1
;   bridgingSpeedMultiplier,1
;   filamentDiameter,1.75
;   filamentPricePerKg,20
;   filamentDensity,1.25
;   useMinPrintHeight,0
;   minPrintHeight,0
;   useMaxPrintHeight,0
;   maxPrintHeight,0
;   useDiaphragm,0
;   diaphragmLayerInterval,20
;   robustSlicing,1
;   mergeAllIntoSolid,0
;   onlyRetractWhenCrossingOutline,1
;   retractBetweenLayers,1
;   useRetractionMinTravel,0
;   retractionMinTravel,3
;   retractWhileWiping,0
;   onlyWipeOutlines,1
;   avoidCrossingOutline,1
;   maxMovementDetourFactor,3
;   toolChangeRetractionDistance,12
;   toolChangeExtraRestartDistance,-0.5
;   toolChangeRetractionSpeed,600
;   allowThinWallGapFill,1
;   thinWallAllowedOverlapPercentage,10
;   horizontalSizeCompensation,0
G90
M82
M106 S0
M140 S65
M190 S65
M104 S215 T0
M109 S215 T0
G28 ; home all axes
G1 Z5 F3000 ; lift
G1 X5 Y10 F1500 ; move to prime
G1 Z0.2 F3000 ; get ready to prime
G92 E0 ; reset extrusion distance
G1 Y80 E10 F600 ; prime nozzle
G1 Y100 F5000 ; quick wipe
G92 E0
G1 E-5.5000 F1800
G1 Z1.300 F1002
; layer 1, Z = 0.3
T0
; tool H0.300 W0.378
; skirt
G1 X90.192 Y90.514 F4800
G1 Z0.300 F1002
G1 E0.0000 F540
G92 E0
G1 X90.198 Y90.508 E0.0004 F1080
G1 X90.245 Y90.460 E0.0036
G1 X90.251 Y90.454 E0.0040
G1 X91.397 Y89.361 E0.0786
G1 X91.403 Y89.355 E0.0790
G1 X91.453 Y89.310 E0.0822
G1 X91.459 Y89.304 E0.0826
G1 X92.669 Y88.281 E0.1573
G1 X92.675 Y88.276 E0.1577
G1 X92.728 Y88.234 E0.1609
G1 X92.735 Y88.229 E0.1613
G1 X94.003 Y87.280 E0.2359
G1 X94.009 Y87.276 E0.2363
G1 X94.065 Y87.237 E0.2395
G1 X94.072 Y87.232 E0.2399
G1 X95.394 Y86.362 E0.3145
G1 X95.401 Y86.358 E0.3149
G1 X95.457 Y86.323 E0.3180
G1 X95.464 Y86.319 E0.3184
G1 X96.713 Y85.598 E0.3864
G1 X96.720 Y85.594 E0.3868
G1 X96.777 Y85.563 E0.3899
G1 X96.784 Y85.559 E0.3902
G1 X98.325 Y84.785 E0.4715
G1 X98.332 Y84.781 E0.4719
G1 X98.398 Y84.751 E0.4753
G1 X98.406 Y84.747 E0.4757
G1 X99.865 Y84.127 E0.5505
G1 X99.873 Y84.124 E0.5509
G1 X99.936 Y84.099 E0.5541
G1 X99.944 Y84.096 E0.5545
G1 X101.436 Y83.565 E0.6291
G1 X101.444 Y83.562 E0.6295
G1 X101.509 Y83.542 E0.6327
G1 X101.516 Y83.539 E0.6331
G1 X103.036 Y83.099 E0.7077
G1 X103.044 Y83.097 E0.7081
G1 X103.107 Y83.081 E0.7112
G1 X103.114 Y83.079 E0.7115
G1 X104.521 Y82.758 E0.7795
G1 X104.529 Y82.756 E0.7799
G1 X104.595 Y82.743 E0.7831
G1 X104.603 Y82.742 E0.7835
G1 X106.304 Y82.459 E0.8648
G1 X106.312 Y82.458 E0.8652
G1 X106.382 Y82.448 E0.8685
G1 X106.390 Y82.447 E0.8689
G1 X107.944 Y82.287 E0.9425
G1 X107.952 Y82.287 E0.9429
G1 X108.019 Y82.282 E0.9461
G1 X108.027 Y82.281 E0.9464
G1 X109.585 Y82.214 E1.0200
G1 X109.593 Y82.213 E1.0203
G1 X109.660 Y82.212 E1.0235
G1 X109.668 Y82.212 E1.0239
G1 X111.228 Y82.237 E1.0974
G1 X111.236 Y82.237 E1.0978
G1 X111.303 Y82.240 E1.1010
G1 X111.311 Y82.241 E1.1014
G1 X112.867 Y82.358 E1.1749
G1 X112.875 Y82.358 E1.1753
G1 X112.942 Y82.366 E1.1785
G1 X112.950 Y82.366 E1.1789
G1 X114.519 Y82.579 E1.2535
G1 X114.527 Y82.580 E1.2539
G1 X114.594 Y82.591 E1.2571
G1 X114.602 Y82.593 E1.2575
G1 X116.156 Y82.899 E1.3322
G1 X116.164 Y82.901 E1.3325
G1 X116.231 Y82.916 E1.3358
G1 X116.238 Y82.918 E1.3361
G1 X117.771 Y83.317 E1.4108
G1 X117.779 Y83.319 E1.4112
G1 X117.844 Y83.338 E1.4144
G1 X117.852 Y83.341 E1.4148
G1 X119.358 Y83.831 E1.4894
G1 X119.365 Y83.834 E1.4898
G1 X119.428 Y83.856 E1.4930
G1 X119.436 Y83.859 E1.4934
G1 X120.778 Y84.386 E1.5613
G1 X120.785 Y84.389 E1.5617
G1 X120.844 Y84.414 E1.5647
G1 X120.851 Y84.417 E1.5651
G1 X122.417 Y85.136 E1.6463
G1 X122.425 Y85.140 E1.6467
G1 X122.491 Y85.172 E1.6502
G1 X122.498 Y85.176 E1.6506
G1 X123.894 Y85.929 E1.7253
G1 X123.900 Y85.933 E1.7257
G1 X123.958 Y85.967 E1.7289
G1 X123.965 Y85.971 E1.7292
G1 X125.192 Y86.729 E1.7972
G1 X125.198 Y86.733 E1.7976
G1 X125.253 Y86.769 E1.8007
G1 X125.259 Y86.773 E1.8010
G1 X126.671 Y87.762 E1.8823
G1 X126.678 Y87.767 E1.8827
G1 X126.736 Y87.811 E1.8861
G1 X126.743 Y87.816 E1.8865
G1 X127.980 Y88.806 E1.9612
G1 X127.986 Y88.811 E1.9616
G1 X128.036 Y88.854 E1.9647
G1 X128.042 Y88.859 E1.9651
G1 X129.114 Y89.824 E2.0331
G1 X129.120 Y89.830 E2.0335
G1 X129.168 Y89.876 E2.0366
G1 X129.174 Y89.881 E2.0370
G1 X130.385 Y91.108 E2.1183
G1 X130.391 Y91.114 E2.1187
G1 X130.440 Y91.167 E2.1221
G1 X130.446 Y91.173 E2.1225
G1 X131.486 Y92.370 E2.1972
G1 X131.492 Y92.376 E2.1976
G1 X131.535 Y92.429 E2.2008
G1 X131.540 Y92.435 E2.2012
G1 X132.504 Y93.689 E2.2758
G1 X132.509 Y93.695 E2.2762
G1 X132.547 Y93.748 E2.2792
G1 X132.551 Y93.754 E2.2796
G1 X133.363 Y94.945 E2.3475
G1 X133.367 Y94.951 E2.3479
G1 X133.402 Y95.006 E2.3509
G1 X133.407 Y95.013 E2.3513
G1 X134.223 Y96.370 E2.4260
G1 X134.227 Y96.377 E2.4264
G1 X134.262 Y96.440 E2.4298
G1 X134.266 Y96.447 E2.4302
G1 X135.059 Y97.978 E2.5115
G1 X135.063 Y97.986 E2.5118
G1 X135.092 Y98.046 E2.5150
G1 X135.095 Y98.053 E2.5154
G1 X135.682 Y99.371 E2.5834
G1 X135.685 Y99.378 E2.5838
G1 X135.710 Y99.439 E2.5869
G1 X135.713 Y99.446 E2.5872
G1 X136.273 Y100.928 E2.6619
G1 X136.276 Y100.937 E2.6623
G1 X136.299 Y101.005 E2.6657
G1 X136.302 Y101.013 E2.6661
G1 X136.807 Y102.661 E2.7474
G1 X136.809 Y102.669 E2.7478
G1 X136.827 Y102.733 E2.7509
G1 X136.829 Y102.740 E2.7513
G1 X137.171 Y104.141 E2.8193
G1 X137.172 Y104.149 E2.8196
G1 X137.186 Y104.214 E2.8228
G1 X137.188 Y104.221 E2.8231
G1 X137.473 Y105.778 E2.8977
G1 X137.474 Y105.786 E2.8981
G1 X137.484 Y105.854 E2.9013
G1 X137.485 Y105.862 E2.9017
G1 X137.677 Y107.434 E2.9764
G1 X137.678 Y107.442 E2.9768
G1 X137.684 Y107.510 E2.9800
G1 X137.684 Y107.518 E2.9804
G1 X137.781 Y109.101 E3.0552
G1 X137.781 Y109.110 E3.0556
G1 X137.783 Y109.183 E3.0590
G1 X137.784 Y109.192 E3.0594
G1 X137.778 Y110.915 E3.1407
G1 X137.777 Y110.923 E3.1410
G1 X137.775 Y110.987 E3.1441
G1 X137.775 Y110.994 E3.1444
G1 X137.689 Y112.433 E3.2124
G1 X137.688 Y112.441 E3.2128
G1 X137.682 Y112.508 E3.2159
G1 X137.681 Y112.516 E3.2163
G1 X137.493 Y114.088 E3.2910
G1 X137.492 Y114.097 E3.2913
G1 X137.482 Y114.164 E3.2946
G1 X137.481 Y114.172 E3.2949
G1 X137.198 Y115.730 E3.3696
G1 X137.197 Y115.738 E3.3700
G1 X137.183 Y115.805 E3.3732
G1 X137.181 Y115.813 E3.3736
G1 X136.806 Y117.351 E3.4482
G1 X136.804 Y117.359 E3.4486
G1 X136.785 Y117.425 E3.4518
G1 X136.783 Y117.433 E3.4522
G1 X136.316 Y118.946 E3.5269
G1 X136.314 Y118.954 E3.5273
G1 X136.292 Y119.018 E3.5305
G1 X136.289 Y119.026 E3.5309
G1 X135.732 Y120.508 E3.6055
G1 X135.729 Y120.516 E3.6059
G1 X135.703 Y120.579 E3.6091
G1 X135.700 Y120.586 E3.6095
G1 X135.055 Y122.033 E3.6842
G1 X135.052 Y122.040 E3.6846
G1 X135.022 Y122.102 E3.6878
G1 X135.019 Y122.109 E3.6882
G1 X134.288 Y123.514 E3.7628
G1 X134.285 Y123.521 E3.7632
G1 X134.252 Y123.580 E3.7663
G1 X134.248 Y123.586 E3.7667
G1 X133.508 Y124.824 E3.8347
G1 X133.504 Y124.831 E3.8351
G1 X133.470 Y124.885 E3.8381
G1 X133.466 Y124.891 E3.8384
G1 X132.500 Y126.318 E3.9197
G1 X132.495 Y126.326 E3.9201
G1 X132.452 Y126.385 E3.9236
G1 X132.446 Y126.392 E3.9240
G1 X131.475 Y127.645 E3.9987
G1 X131.470 Y127.651 E3.9991
G1 X131.428 Y127.702 E4.0022
G1 X131.423 Y127.708 E4.0026
G1 X130.474 Y128.794 E4.0706
G1 X130.469 Y128.800 E4.0709
G1 X130.424 Y128.848 E4.0740
G1 X130.419 Y128.853 E4.0744
G1 X129.212 Y130.084 E4.1557
G1 X129.206 Y130.090 E4.1561
G1 X129.153 Y130.140 E4.1595
G1 X129.147 Y130.146 E4.1599
G1 X127.967 Y131.204 E4.2346
G1 X127.961 Y131.210 E4.2350
G1 X127.911 Y131.252 E4.2381
G1 X127.905 Y131.257 E4.2385
G1 X126.777 Y132.156 E4.3065
G1 X126.771 Y132.161 E4.3068
G1 X126.718 Y132.201 E4.3100
G1 X126.711 Y132.206 E4.3104
G1 X125.303 Y133.200 E4.3916
G1 X125.296 Y133.205 E4.3920
G1 X125.235 Y133.244 E4.3954
G1 X125.228 Y133.249 E4.3958
G1 X123.877 Y134.079 E4.4706
G1 X123.870 Y134.083 E4.4710
G1 X123.811 Y134.117 E4.4742
G1 X123.804 Y134.121 E4.4746
G1 X122.409 Y134.867 E4.5492
G1 X122.402 Y134.871 E4.5495
G1 X122.344 Y134.900 E4.5526
G1 X122.337 Y134.903 E4.5530
G1 X121.030 Y135.509 E4.6209
G1 X121.023 Y135.512 E4.6213
G1 X120.963 Y135.538 E4.6243
G1 X120.956 Y135.541 E4.6247
G1 X119.483 Y136.123 E4.6994
G1 X119.475 Y136.126 E4.6998
G1 X119.407 Y136.150 E4.7031
G1 X119.399 Y136.153 E4.7035
G1 X117.759 Y136.685 E4.7848
G1 X117.751 Y136.687 E4.7852
G1 X117.687 Y136.706 E4.7884
G1 X117.679 Y136.708 E4.7888
G1 X116.283 Y137.071 E4.8568
G1 X116.276 Y137.073 E4.8571
G1 X116.212 Y137.088 E4.8602
G1 X116.204 Y137.089 E4.8606
G1 X114.652 Y137.398 E4.9352
G1 X114.644 Y137.400 E4.9356
G1 X114.577 Y137.411 E4.9388
G1 X114.569 Y137.412 E4.9392
G1 X113.000 Y137.628 E5.0138
G1 X112.992 Y137.629 E5.0142
G1 X112.924 Y137.636 E5.0174
G1 X112.916 Y137.637 E5.0178
G1 X111.335 Y137.758 E5.0926
G1 X111.326 Y137.758 E5.0930
G1 X111.254 Y137.762 E5.0964
G1 X111.245 Y137.762 E5.0968
G1 X109.521 Y137.783 E5.1781
G1 X109.514 Y137.783 E5.1785
G1 X109.448 Y137.782 E5.1815
G1 X109.441 Y137.782 E5.1819
G1 X108.000 Y137.717 E5.2499
G1 X107.992 Y137.717 E5.2503
G1 X107.926 Y137.712 E5.2534
G1 X107.918 Y137.711 E5.2538
G1 X106.343 Y137.547 E5.3284
G1 X106.335 Y137.546 E5.3288
G1 X106.268 Y137.537 E5.3320
G1 X106.260 Y137.536 E5.3324
G1 X104.697 Y137.278 E5.4070
G1 X104.689 Y137.277 E5.4074
G1 X104.622 Y137.264 E5.4106
G1 X104.614 Y137.262 E5.4110
G1 X103.070 Y136.911 E5.4857
G1 X103.062 Y136.909 E5.4861
G1 X102.996 Y136.891 E5.4893
G1 X102.988 Y136.889 E5.4897
G1 X101.468 Y136.446 E5.5643
G1 X101.460 Y136.444 E5.5647
G1 X101.396 Y136.423 E5.5679
G1 X101.388 Y136.420 E5.5683
G1 X99.897 Y135.886 E5.6430
G1 X99.889 Y135.883 E5.6434
G1 X99.826 Y135.858 E5.6466
G1 X99.818 Y135.855 E5.6470
G1 X98.362 Y135.233 E5.7216
G1 X98.355 Y135.230 E5.7220
G1 X98.293 Y135.201 E5.7252
G1 X98.285 Y135.197 E5.7256
G1 X96.869 Y134.489 E5.8003
G1 X96.862 Y134.485 E5.8007
G1 X96.802 Y134.453 E5.8039
G1 X96.795 Y134.449 E5.8042
G1 X95.423 Y133.657 E5.8789
G1 X95.417 Y133.652 E5.8793
G1 X95.359 Y133.617 E5.8825
G1 X95.352 Y133.612 E5.8829
G1 X94.030 Y132.739 E5.9576
G1 X94.024 Y132.735 E5.9579
G1 X93.968 Y132.695 E5.9612
G1 X93.961 Y132.690 E5.9615
G1 X92.695 Y131.740 E6.0362
G1 X92.689 Y131.735 E6.0366
G1 X92.637 Y131.693 E6.0397
G1 X92.630 Y131.688 E6.0401
G1 X91.531 Y130.756 E6.1081
G1 X91.525 Y130.751 E6.1084
G1 X91.477 Y130.708 E6.1115
G1 X91.471 Y130.703 E6.1118
G1 X90.222 Y129.516 E6.1931
G1 X90.216 Y129.510 E6.1935
G1 X90.164 Y129.458 E6.1969
G1 X90.158 Y129.451 E6.1973
G1 X89.081 Y128.288 E6.2721
G1 X89.076 Y128.282 E6.2725
G1 X89.032 Y128.232 E6.2756
G1 X89.027 Y128.226 E6.2760
G1 X88.111 Y127.112 E6.3440
G1 X88.107 Y127.106 E6.3443
G1 X88.066 Y127.054 E6.3474
G1 X88.062 Y127.048 E6.3478
G1 X87.046 Y125.655 E6.4291
G1 X87.041 Y125.648 E6.4295
G1 X87.000 Y125.588 E6.4329
G1 X86.995 Y125.581 E6.4333
G1 X86.144 Y124.244 E6.5080
G1 X86.140 Y124.237 E6.5084
G1 X86.107 Y124.181 E6.5115
G1 X86.103 Y124.174 E6.5118
G1 X85.400 Y122.914 E6.5798
G1 X85.397 Y122.907 E6.5802
G1 X85.366 Y122.848 E6.5834
G1 X85.362 Y122.841 E6.5837
G1 X84.613 Y121.288 E6.6650
G1 X84.609 Y121.280 E6.6654
G1 X84.580 Y121.215 E6.6688
G1 X84.576 Y121.207 E6.6692
