; G-Code generated by Simplify3D(R) Version 3.0.2
; Jun 15, 2022 at 9:39:21 PM
; Settings Summary
;   processName,Process1
;   applyToModels,tube_stick
;   profileName,Ender 3 (modified)
;   profileVersion,2022-03-25 00:06:10
;   baseProfile,Creality CR-10 Mini
;   printMaterial,PLA
;   printQuality,Medium
;   printExtruders,
;   extruderName,Primary Extruder
;   extruderToolheadNumber,0
;   extruderDiameter,0.4
;   extruderAutoWidth,0
;   extruderWidth,0.36
;   extrusionMultiplier,1
;   extruderUseRetract,1
;   extruderRetractionDistance,5.5
;   extruderExtraRestartDistance,0
;   extruderRetractionZLift,1
;   extruderRetractionSpeed,1800
;   extruderUseCoasting,1
;   extruderCoastingDistance,0.2
;   extruderUseWipe,1
;   extruderWipeDistance,5
;   primaryExtruder,0
;   layerHeight,0.25
;   topSolidLayers,3
;   bottomSolidLayers,3
;   perimeterOutlines,3
;   printPerimetersInsideOut,1
;   startPointOption,2
;   startPointOriginX,0
;   startPointOriginY,110
;   startPointOriginZ,300
;   sequentialIslands,0
;   spiralVaseMode,0
;   firstLayerHeightPercentage,120
;   firstLayerWidthPercentage,105
;   firstLayerUnderspeed,0.4
;   useRaft,0
;   raftExtruder,0
;   raftLayers,3
;   raftOffset,3
;   raftSeparationDistance,0.14
;   raftInfill,85
;   disableRaftBaseLayers,0
;   useSkirt,1
;   skirtExtruder,0
;   skirtLayers,2
;   skirtOutlines,2
;   skirtOffset,2
;   usePrimePillar,0
;   primePillarExtruder,999
;   primePillarWidth,12
;   primePillarLocation,7
;   primePillarSpeedMultiplier,1
;   useOozeShield,0
;   oozeShieldExtruder,999
;   oozeShieldOffset,2
;   oozeShieldOutlines,1
;   oozeShieldSidewallShape,1
;   oozeShieldSidewallAngle,30
;   oozeShieldSpeedMultiplier,1
;   infillExtruder,0
;   internalInfillPattern,Rectilinear
;   externalInfillPattern,Rectilinear
;   infillPercentage,15
;   outlineOverlapPercentage,15
;   infillExtrusionWidthPercentage,100
;   minInfillLength,5
;   infillLayerInterval,1
;   infillAngles,45,-45
;   overlapInfillAngles,0
;   generateSupport,0
;   supportExtruder,0
;   supportInfillPercentage,15
;   supportExtraInflation,1
;   denseSupportLayers,2
;   denseSupportInfillPercentage,70
;   supportLayerInterval,1
;   supportHorizontalPartOffset,0.3
;   supportUpperSeparationLayers,1
;   supportLowerSeparationLayers,1
;   supportType,0
;   supportGridSpacing,4
;   maxOverhangAngle,50
;   supportAngles,45
;   temperatureName,Primary Extruder,Heated Bed
;   temperatureNumber,0,0
;   temperatureSetpointCount,2,1
;   temperatureSetpointLayers,1,1,1
;   temperatureSetpointTemperatures,215,210,65
;   temperatureStabilizeAtStartup,1,1
;   temperatureHeatedBed,0,1
;   temperatureRelayBetweenLayers,0,0
;   temperatureRelayBetweenLoops,0,0
;   fanLayers,1,2
;   fanSpeeds,0,100
;   blipFanToFullPower,0
;   adjustSpeedForCooling,1
;   minSpeedLayerTime,15
;   minCoolingSpeedSlowdown,20
;   increaseFanForCooling,0
;   minFanLayerTime,45
;   maxCoolingFanSpeed,100
;   increaseFanForBridging,0
;   bridgingFanSpeed,100
;   use5D,1
;   relativeEdistances,0
;   allowEaxisZeroing,1
;   independentExtruderAxes,0
;   includeM10123,0
;   stickySupport,1
;   applyToolheadOffsets,0
;   gcodeXoffset,0
;   gcodeYoffset,0
;   gcodeZoffset,0
;   overrideMachineDefinition,1
;   machineTypeOverride,0
;   strokeXoverride,220
;   strokeYoverride,220
;   strokeZoverride,250
;   originOffsetXoverride,0
;   originOffsetYoverride,0
;   originOffsetZoverride,0
;   homeXdirOverride,-1
;   homeYdirOverride,-1
;   homeZdirOverride,-1
;   flipXoverride,1
;   flipYoverride,-1
;   flipZoverride,1
;   toolheadOffsets,0,0|0,0|0,0|0,0|0,0|0,0
;   overrideFirmwareConfiguration,1
;   firmwareTypeOverride,RepRap (Marlin/Repetier/Sprinter)
;   GPXconfigOverride,r2
;   baudRateOverride,115200
;   overridePrinterModels,1
;   printerModelsOverride
;   startingGcode,G28 ; home all axes,G1 Z5 F3000 ; lift,G1 X5 Y10 F1500 ; move to prime,G1 Z0.2 F3000 ; get ready to prime,G92 E0 ; reset extrusion distance,G1 Y80 E10 F600 ; prime nozzle,G1 Y100 F5000 ; quick wipe
;   layerChangeGcode,
;   retractionGcode,
;   toolChangeGcode,
;   endingGcode,G28 X0 ; home x axis,M106 S0 ; turn off cooling fan,M104 S0 ; turn off extruder,M140 S0 ; turn off bed,M84 ; disable motors
;   createX3G,0
;   celebration,0
;   celebrationSong,Funky Town
;   createMB5G,0
;   postProcessing,
;   defaultSpeed,2700
;   outlineUnderspeed,0.5
;   solidInfillUnderspeed,0.8
;   supportUnderspeed,0.8
;   rapidXYspeed,4800
;   rapidZspeed,1002
;   minBridgingArea,50
;   bridgingExtraInflation,0
;   bridgingExtrusionMultiplier,1
;   bridgingSpeedMultiplier,1
;   filamentDiameter,1.75
;   filamentPricePerKg,20
;   filamentDensity,1.25
;   useMinPrintHeight,0
;   minPrintHeight,0
;   useMaxPrintHeight,0
;   maxPrintHeight,0
;   useDiaphragm,0
;   diaphragmLayerInterval,20
;   robustSlicing,1
;   mergeAllIntoSolid,0
;   onlyRetractWhenCrossingOutline,1
;   retractBetweenLayers,1
;   useRetractionMinTravel,0
;   retractionMinTravel,3
;   retractWhileWiping,0
;   onlyWipeOutlines,1
;   avoidCrossingOutline,1
;   maxMovementDetourFactor,3
;   toolChangeRetractionDistance,12
;   toolChangeExtraRestartDistance,-0.5
;   toolChangeRetractionSpeed,600
;   allowThinWallGapFill,1
;   thinWallAllowedOverlapPercentage,10
;   horizontalSizeCompensation,0
G90
M82
M106 S0
M140 S65
M190 S65
M104 S215 T0
M109 S215 T0
G28 ; home all axes
G1 Z5 F3000 ; lift
G1 X5 Y10 F1500 ; move to prime
G1 Z0.2 F3000 ; get ready to prime
G92 E0 ; reset extrusion distance
G1 Y80 E10 F600 ; prime nozzle
G1 Y100 F5000 ; quick wipe
G92 E0
G1 E-5.5000 F1800
G1 Z1.300 F1002
; layer 1, Z = 0.3
T0
; tool H0.300 W0.378
; skirt
G1 X99.194 Y73.084 F4800
G1 Z0.300 F1002
G1 E0.0000 F540
G92 E0
G1 X99.208 Y73.065 E0.0011 F1080
G1 X99.336 Y72.913 E0.0105
G1 X99.352 Y72.896 E0.0116
G1 X99.883 Y72.364 E0.0470
G1 X99.901 Y72.348 E0.0481
G1 X100.052 Y72.221 E0.0575
G1 X100.071 Y72.206 E0.0586
G1 X100.687 Y71.775 E0.0940
G1 X100.707 Y71.763 E0.0951
G1 X100.878 Y71.664 E0.1045
G1 X100.899 Y71.653 E0.1056
G1 X101.580 Y71.335 E0.1410
G1 X101.602 Y71.326 E0.1421
G1 X101.788 Y71.258 E0.1515
G1 X101.811 Y71.251 E0.1526
G1 X102.537 Y71.057 E0.1880
G1 X102.560 Y71.052 E0.1891
G1 X102.755 Y71.017 E0.1985
G1 X102.779 Y71.014 E0.1996
G1 X103.478 Y70.953 E0.2327
G1 X103.490 Y70.952 E0.2332
G1 X103.589 Y70.948 E0.2379
G1 X103.600 Y70.948 E0.2385
G1 X116.400 Y70.948 E0.8419
G1 X116.411 Y70.948 E0.8425
G1 X116.510 Y70.952 E0.8471
G1 X116.522 Y70.953 E0.8477
G1 X117.221 Y71.014 E0.8808
G1 X117.245 Y71.017 E0.8819
G1 X117.440 Y71.052 E0.8912
G1 X117.463 Y71.057 E0.8923
G1 X118.189 Y71.251 E0.9278
G1 X118.212 Y71.258 E0.9289
G1 X118.398 Y71.326 E0.9382
G1 X118.420 Y71.335 E0.9393
G1 X119.101 Y71.653 E0.9748
G1 X119.122 Y71.664 E0.9759
G1 X119.293 Y71.763 E0.9852
G1 X119.313 Y71.775 E0.9863
G1 X119.929 Y72.206 E1.0218
G1 X119.948 Y72.221 E1.0229
G1 X120.099 Y72.348 E1.0322
G1 X120.117 Y72.364 E1.0334
G1 X120.648 Y72.896 E1.0688
G1 X120.664 Y72.913 E1.0699
G1 X120.792 Y73.065 E1.0792
G1 X120.806 Y73.084 E1.0804
G1 X121.237 Y73.699 E1.1158
G1 X121.250 Y73.719 E1.1169
G1 X121.349 Y73.891 E1.1263
G1 X121.360 Y73.912 E1.1274
G1 X121.677 Y74.593 E1.1628
G1 X121.686 Y74.615 E1.1639
G1 X121.754 Y74.801 E1.1733
G1 X121.761 Y74.823 E1.1744
G1 X121.956 Y75.549 E1.2098
G1 X121.961 Y75.572 E1.2109
G1 X121.995 Y75.768 E1.2203
G1 X121.998 Y75.791 E1.2214
G1 X122.060 Y76.490 E1.2545
G1 X122.060 Y76.502 E1.2550
G1 X122.065 Y76.601 E1.2597
G1 X122.065 Y76.613 E1.2603
G1 X122.065 Y143.387 E4.4084
G1 X122.065 Y143.399 E4.4090
G1 X122.060 Y143.498 E4.4136
G1 X122.060 Y143.510 E4.4142
G1 X121.998 Y144.209 E4.4473
G1 X121.995 Y144.232 E4.4484
G1 X121.961 Y144.428 E4.4577
G1 X121.956 Y144.451 E4.4588
G1 X121.761 Y145.177 E4.4943
G1 X121.754 Y145.199 E4.4954
G1 X121.686 Y145.385 E4.5047
G1 X121.677 Y145.407 E4.5059
G1 X121.360 Y146.088 E4.5413
G1 X121.349 Y146.109 E4.5424
G1 X121.250 Y146.281 E4.5517
G1 X121.237 Y146.301 E4.5529
G1 X120.806 Y146.916 E4.5883
G1 X120.792 Y146.935 E4.5894
G1 X120.664 Y147.087 E4.5988
G1 X120.648 Y147.104 E4.5999
G1 X120.117 Y147.636 E4.6353
G1 X120.099 Y147.652 E4.6364
G1 X119.948 Y147.779 E4.6458
G1 X119.929 Y147.793 E4.6469
G1 X119.313 Y148.225 E4.6823
G1 X119.293 Y148.237 E4.6834
G1 X119.122 Y148.336 E4.6928
G1 X119.101 Y148.347 E4.6939
G1 X118.420 Y148.665 E4.7293
G1 X118.398 Y148.674 E4.7304
G1 X118.212 Y148.742 E4.7398
G1 X118.189 Y148.749 E4.7409
G1 X117.463 Y148.943 E4.7763
G1 X117.440 Y148.948 E4.7774
G1 X117.245 Y148.983 E4.7868
G1 X117.221 Y148.986 E4.7879
G1 X116.522 Y149.047 E4.8210
G1 X116.510 Y149.048 E4.8215
G1 X116.411 Y149.052 E4.8262
G1 X116.400 Y149.052 E4.8268
G1 X103.600 Y149.052 E5.4302
G1 X103.589 Y149.052 E5.4307
G1 X103.490 Y149.048 E5.4354
G1 X103.478 Y149.047 E5.4360
G1 X102.779 Y148.986 E5.4691
G1 X102.755 Y148.983 E5.4702
G1 X102.560 Y148.948 E5.4795
G1 X102.537 Y148.943 E5.4806
G1 X101.811 Y148.749 E5.5161
G1 X101.789 Y148.742 E5.5172
G1 X101.602 Y148.674 E5.5265
G1 X101.580 Y148.665 E5.5276
G1 X100.899 Y148.347 E5.5631
G1 X100.878 Y148.336 E5.5642
G1 X100.707 Y148.237 E5.5735
G1 X100.687 Y148.225 E5.5746
G1 X100.071 Y147.793 E5.6101
G1 X100.052 Y147.779 E5.6112
G1 X99.901 Y147.652 E5.6205
G1 X99.883 Y147.636 E5.6216
G1 X99.352 Y147.104 E5.6571
G1 X99.336 Y147.087 E5.6582
G1 X99.208 Y146.935 E5.6675
G1 X99.194 Y146.916 E5.6687
G1 X98.763 Y146.301 E5.7041
G1 X98.750 Y146.281 E5.7052
G1 X98.651 Y146.109 E5.7145
G1 X98.640 Y146.088 E5.7157
G1 X98.323 Y145.407 E5.7511
G1 X98.314 Y145.385 E5.7522
G1 X98.246 Y145.199 E5.7616
G1 X98.239 Y145.177 E5.7627
G1 X98.044 Y144.451 E5.7981
G1 X98.039 Y144.428 E5.7992
G1 X98.005 Y144.232 E5.8086
G1 X98.002 Y144.209 E5.8097
G1 X97.940 Y143.510 E5.8428
G1 X97.940 Y143.498 E5.8433
G1 X97.935 Y143.399 E5.8480
G1 X97.935 Y143.387 E5.8485
G1 X97.935 Y76.613 E8.9967
G1 X97.935 Y76.601 E8.9972
G1 X97.940 Y76.502 E9.0019
G1 X97.940 Y76.490 E9.0025
G1 X98.002 Y75.791 E9.0356
G1 X98.005 Y75.768 E9.0367
G1 X98.039 Y75.572 E9.0460
G1 X98.044 Y75.549 E9.0471
G1 X98.239 Y74.823 E9.0826
G1 X98.246 Y74.801 E9.0837
G1 X98.314 Y74.615 E9.0930
G1 X98.323 Y74.593 E9.0941
G1 X98.640 Y73.912 E9.1296
G1 X98.651 Y73.891 E9.1307
G1 X98.750 Y73.719 E9.1400
G1 X98.763 Y73.699 E9.1412
G1 X99.079 Y73.247 E9.1672
G1 X99.194 Y73.084 F1080
G1 X99.484 Y73.297 F4800
G92 E0
G1 X99.489 Y73.290 E0.0004 F1080
G1 X99.606 Y73.150 E0.0090
G1 X99.612 Y73.145 E0.0093
G1 X100.132 Y72.624 E0.0440
G1 X100.138 Y72.619 E0.0444
G1 X100.278 Y72.502 E0.0530
G1 X100.284 Y72.497 E0.0534
G1 X100.887 Y72.075 E0.0881
G1 X100.893 Y72.071 E0.0885
G1 X101.052 Y71.979 E0.0971
G1 X101.058 Y71.976 E0.0974
G1 X101.725 Y71.665 E0.1321
G1 X101.733 Y71.662 E0.1325
G1 X101.904 Y71.599 E0.1411
G1 X101.912 Y71.597 E0.1415
G1 X102.623 Y71.406 E0.1762
G1 X102.630 Y71.405 E0.1765
G1 X102.810 Y71.373 E0.1851
G1 X102.818 Y71.372 E0.1855
G1 X103.505 Y71.312 E0.2181
G1 X103.509 Y71.312 E0.2182
G1 X103.600 Y71.308 E0.2225
G1 X103.604 Y71.308 E0.2227
G1 X116.396 Y71.308 E0.8258
G1 X116.400 Y71.308 E0.8260
G1 X116.491 Y71.312 E0.8303
G1 X116.495 Y71.312 E0.8305
G1 X117.182 Y71.372 E0.8630
G1 X117.190 Y71.373 E0.8634
G1 X117.370 Y71.405 E0.8720
G1 X117.377 Y71.406 E0.8723
G1 X118.088 Y71.597 E0.9070
G1 X118.096 Y71.599 E0.9074
G1 X118.267 Y71.662 E0.9160
G1 X118.275 Y71.665 E0.9164
G1 X118.942 Y71.976 E0.9511
G1 X118.948 Y71.979 E0.9515
G1 X119.107 Y72.071 E0.9601
G1 X119.113 Y72.075 E0.9604
G1 X119.716 Y72.497 E0.9951
G1 X119.722 Y72.502 E0.9955
G1 X119.862 Y72.619 E1.0041
G1 X119.868 Y72.624 E1.0045
G1 X120.388 Y73.145 E1.0392
G1 X120.394 Y73.150 E1.0395
G1 X120.511 Y73.290 E1.0481
G1 X120.516 Y73.296 E1.0485
G1 X120.938 Y73.899 E1.0832
G1 X120.942 Y73.906 E1.0836
G1 X121.033 Y74.064 E1.0922
G1 X121.037 Y74.071 E1.0926
G1 X121.348 Y74.738 E1.1272
G1 X121.351 Y74.745 E1.1276
G1 X121.413 Y74.917 E1.1362
G1 X121.416 Y74.924 E1.1366
G1 X121.606 Y75.635 E1.1713
G1 X121.608 Y75.643 E1.1717
G1 X121.639 Y75.822 E1.1803
G1 X121.641 Y75.830 E1.1806
G1 X121.701 Y76.518 E1.2132
G1 X121.701 Y76.522 E1.2134
G1 X121.705 Y76.613 E1.2177
G1 X121.705 Y76.617 E1.2178
G1 X121.705 Y143.383 E4.3656
G1 X121.705 Y143.387 E4.3658
G1 X121.701 Y143.478 E4.3701
G1 X121.701 Y143.482 E4.3703
G1 X121.641 Y144.170 E4.4028
G1 X121.639 Y144.178 E4.4032
G1 X121.608 Y144.357 E4.4118
G1 X121.606 Y144.365 E4.4122
G1 X121.416 Y145.076 E4.4469
G1 X121.413 Y145.083 E4.4473
G1 X121.351 Y145.255 E4.4559
G1 X121.348 Y145.262 E4.4562
G1 X121.037 Y145.929 E4.4909
G1 X121.033 Y145.936 E4.4913
G1 X120.942 Y146.094 E4.4999
G1 X120.938 Y146.101 E4.5003
G1 X120.516 Y146.703 E4.5350
G1 X120.511 Y146.710 E4.5353
G1 X120.394 Y146.850 E4.5439
G1 X120.388 Y146.855 E4.5443
G1 X119.868 Y147.376 E4.5790
G1 X119.862 Y147.381 E4.5794
G1 X119.722 Y147.498 E4.5880
G1 X119.716 Y147.503 E4.5884
G1 X119.113 Y147.925 E4.6230
G1 X119.107 Y147.929 E4.6234
G1 X118.948 Y148.021 E4.6320
G1 X118.942 Y148.024 E4.6324
G1 X118.275 Y148.335 E4.6671
G1 X118.267 Y148.338 E4.6675
G1 X118.096 Y148.401 E4.6761
G1 X118.088 Y148.403 E4.6764
G1 X117.377 Y148.594 E4.7111
G1 X117.370 Y148.595 E4.7115
G1 X117.190 Y148.627 E4.7201
G1 X117.182 Y148.628 E4.7205
G1 X116.495 Y148.688 E4.7530
G1 X116.491 Y148.688 E4.7532
G1 X116.400 Y148.692 E4.7575
G1 X116.396 Y148.692 E4.7577
G1 X103.604 Y148.692 E5.3607
G1 X103.600 Y148.692 E5.3609
G1 X103.509 Y148.688 E5.3652
G1 X103.505 Y148.688 E5.3654
G1 X102.818 Y148.628 E5.3980
G1 X102.810 Y148.627 E5.3983
G1 X102.630 Y148.595 E5.4069
G1 X102.623 Y148.594 E5.4073
G1 X101.912 Y148.403 E5.4420
G1 X101.904 Y148.401 E5.4424
G1 X101.733 Y148.338 E5.4510
G1 X101.725 Y148.335 E5.4514
G1 X101.058 Y148.024 E5.4860
G1 X101.052 Y148.021 E5.4864
G1 X100.893 Y147.929 E5.4950
G1 X100.887 Y147.925 E5.4954
G1 X100.284 Y147.503 E5.5301
G1 X100.278 Y147.498 E5.5305
G1 X100.138 Y147.381 E5.5391
G1 X100.132 Y147.376 E5.5394
G1 X99.612 Y146.855 E5.5741
G1 X99.606 Y146.850 E5.5745
G1 X99.489 Y146.710 E5.5831
G1 X99.484 Y146.703 E5.5835
G1 X99.062 Y146.101 E5.6182
G1 X99.058 Y146.094 E5.6185
G1 X98.967 Y145.936 E5.6271
G1 X98.963 Y145.929 E5.6275
G1 X98.652 Y145.262 E5.6622
G1 X98.649 Y145.255 E5.6626
G1 X98.587 Y145.083 E5.6712
G1 X98.584 Y145.076 E5.6716
G1 X98.394 Y144.365 E5.7063
G1 X98.392 Y144.357 E5.7066
G1 X98.361 Y144.178 E5.7152
G1 X98.359 Y144.170 E5.7156
G1 X98.299 Y143.482 E5.7481
G1 X98.299 Y143.478 E5.7483
G1 X98.295 Y143.387 E5.7526
G1 X98.295 Y143.383 E5.7528
G1 X98.295 Y76.617 E8.9006
G1 X98.295 Y76.613 E8.9008
G1 X98.299 Y76.522 E8.9051
G1 X98.299 Y76.518 E8.9053
G1 X98.359 Y75.830 E8.9378
G1 X98.361 Y75.822 E8.9382
G1 X98.392 Y75.643 E8.9468
G1 X98.394 Y75.635 E8.9472
G1 X98.584 Y74.924 E8.9818
G1 X98.587 Y74.917 E8.9822
G1 X98.649 Y74.745 E8.9908
G1 X98.652 Y74.738 E8.9912
G1 X98.963 Y74.071 E9.0259
G1 X98.967 Y74.064 E9.0263
G1 X99.058 Y73.906 E9.0349
G1 X99.062 Y73.899 E9.0352
G1 X99.370 Y73.460 E9.0605
G1 X99.484 Y73.297 F1080
; inner perimeter
G1 X101.944 Y75.231 F4800
G92 E0
G1 X102.219 Y74.957 E0.0183 F900
G1 X102.537 Y74.734 E0.0366
G1 X102.889 Y74.570 E0.0549
G1 X103.263 Y74.470 E0.0732
G1 X103.691 Y74.432 E0.0934
G1 X116.309 Y74.432 E0.6883
G1 X116.737 Y74.470 E0.7086
G1 X117.111 Y74.570 E0.7268
G1 X117.463 Y74.734 E0.7451
G1 X117.781 Y74.957 E0.7634
G1 X118.055 Y75.231 E0.7817
G1 X118.278 Y75.549 E0.8000
G1 X118.442 Y75.901 E0.8183
G1 X118.543 Y76.276 E0.8366
G1 X118.580 Y76.704 E0.8569
G1 X118.580 Y143.296 E3.9965
G1 X118.543 Y143.724 E4.0167
G1 X118.442 Y144.099 E4.0350
G1 X118.278 Y144.451 E4.0533
G1 X118.056 Y144.769 E4.0716
